G Major 3 (Traditional).cube
# VEGAS Pro LUT
TITLE "G Major 3 (Traditional)"
LUT_3D_SIZE 5
0.58706057 -0.18169695 -0.60416669
0.79893452 -0.26707304 -0.68954277
1.01146865 -0.35178882 -0.77425855
1.22652304 -0.43398446 -0.85645425
1.44463885 -0.51311874 -0.93558848
0.42004350 -0.05146398 -0.77118379
0.63499618 -0.13376129 -0.85348105
0.85298926 -0.21301843 -0.93273807
1.07459974 -0.28865778 -1.00837755
1.30040526 -0.36010218 -1.07982206
0.26134437 0.08708689 -0.92988294
0.48281163 0.01130411 -1.00566566
0.70845270 -0.06030485 -1.07727468
0.93884474 -0.12716267 -1.14413249
1.17456567 -0.18869209 -1.20566177
0.11650640 0.23949890 -1.07472086
0.34671354 0.17245603 -1.14176369
0.58222795 0.11072040 -1.20349908
0.82362705 0.05486947 -1.25935006
1.07148814 0.00548071 -1.30873919
-0.01010159 0.41014096 -1.20132899
0.23107077 0.35406330 -1.25740647
0.47868395 0.30442649 -1.30704331
0.73331535 0.26180777 -1.34966183
0.99554223 0.22678477 -1.38468504
0.55450916 -0.21424836 -0.33946806
0.76638311 -0.29962444 -0.42484415
0.97980547 -0.38345197 -0.50867176
1.19595897 -0.46454847 -0.58976823
1.41539419 -0.54236352 -0.66758311
0.38834408 -0.08316341 -0.50563318
0.60438782 -0.16436969 -0.58683944
0.82369208 -0.24231559 -0.66478527
1.04683387 -0.31642368 -0.73889333
1.27439094 -0.38611659 -0.80858636
0.23199506 0.05773754 -0.66198212
0.45498550 -0.01652196 -0.73624176
0.68236989 -0.08638759 -0.80610734
0.91472548 -0.15128186 -0.87100172
1.15262985 -0.21062759 -0.93034738
0.09035565 0.21334815 -0.80362159
0.32251820 0.14826071 -0.86870909
0.56020820 0.08870065 -0.92826903
0.80400300 0.03524545 -0.98172432
1.05447984 -0.01152754 -1.02849746
-0.03220530 0.38803720 -0.92618257
0.21135461 0.33434719 -0.97987270
0.46157551 0.28731811 -1.02690184
0.71903479 0.24752721 -1.06669235
0.98430973 0.21555230 -1.09866762
0.52195770 -0.24679974 -0.07476948
0.73412335 -0.33188424 -0.15985394
0.94853538 -0.41472206 -0.24269179
1.16587210 -0.49463549 -0.32260525
1.38671029 -0.57104719 -0.39901698
0.35703471 -0.11447282 -0.23969257
0.57425344 -0.19450407 -0.31972381
0.79495269 -0.27105486 -0.39627454
1.01970983 -0.34354764 -0.46876743
1.24910223 -0.41140521 -0.53662497
0.20320052 0.02894305 -0.39352670
0.42779815 -0.04370929 -0.46617907
0.65700984 -0.11174767 -0.53421742
0.89141297 -0.17459455 -0.59706438
1.13158488 -0.23167273 -0.65414232
0.06492444 0.18791701 -0.53180277
0.29912639 0.12486882 -0.59485084
0.53907585 0.06756826 -0.65215141
0.78535020 0.01659268 -0.70312703
1.03852701 -0.02748063 -0.74720031
-0.05342469 0.36681780 -0.65015185
0.19260679 0.31559929 -0.70137048
0.44551933 0.27126184 -0.74570793
0.70589042 0.23438278 -0.78258693
0.97429729 0.20553973 -0.81143004
0.48940632 -0.27935117 0.18992911
0.70223147 -0.36377609 0.10550416
0.91769046 -0.44556704 0.02371322
1.13629401 -0.52421349 -0.05493321
1.35861945 -0.59913796 -0.12985775
0.32614732 -0.14536020 0.02667013
0.54462492 -0.22413252 -0.05210227
0.76680332 -0.29920426 -0.12717395
0.99325961 -0.36999786 -0.19796762
1.22457147 -0.43593609 -0.26390585
0.17499280 0.00073532 -0.12448442
0.40128154 -0.07022592 -0.19544570
0.63240445 -0.13635302 -0.26157275
0.86893886 -0.19706848 -0.32228830
1.11146247 -0.25179514 -0.37701485
0.04024481 0.16323742 -0.25923240
0.27657002 0.10231252 -0.32015717
0.51886290 0.04735540 -0.37511438
0.76770085 -0.00105667 -0.42352641
1.02366126 -0.04234627 -0.46481603
-0.07372770 0.34651476 -0.37320498
0.17485920 0.29785174 -0.42186803
0.43054736 0.25628990 -0.46342993
0.69391418 0.22240658 -0.49731308
0.96553683 0.19677946 -0.52294046
0.45691016 -0.31184733 0.45468298
0.67071271 -0.39529473 0.37123549
0.88730258 -0.47595489 0.29057544
1.10725713 -0.55325043 0.21327989
1.33115375 -0.62660384 0.13992646
0.29571396 -0.17579356 0.29348671
0.51553446 -0.25322303 0.21605723
0.73927581 -0.32673180 0.14254853
0.96751517 -0.39574230 0.07353796
1.20083034 -0.45967722 0.00960300
0.14740387 -0.02685359 0.14517662
0.37546766 -0.09603984 0.07599049
0.60858572 -0.16017172 0.01185851
0.84733558 -0.21867192 -0.04664172
1.09229434 -0.27096307 -0.09893283
0.01634882 0.13934135 0.01412163
0.25488120 0.08062374 -0.04459601
0.49960142 0.02809396 -0.09712581
0.75108689 -0.01767063 -0.14289035
1.00991488 -0.05609253 -0.18131235
-0.09308243 0.32716018 -0.09530960
0.15814388 0.28113648 -0.14133333
0.41669154 0.24243420 -0.18003567
0.68313801 0.21163051 -0.21083924
0.95806056 0.18930304 -0.23316669
