G Major 3 (Traditional).cube
# VEGAS Pro LUT
TITLE "G Major 3 (Traditional)"
LUT_3D_SIZE 9
0.58706057 -0.18169695 -0.60416669
0.69299752 -0.22438495 -0.64685476
0.79893452 -0.26707304 -0.68954277
0.90490919 -0.30972335 -0.73219305
1.01146865 -0.35178882 -0.77425855
1.11864936 -0.39323324 -0.81570297
1.22652304 -0.43398446 -0.85645425
1.33516228 -0.47397041 -0.89644015
1.44463885 -0.51311874 -0.93558848
0.50325501 -0.11687757 -0.68797231
0.60921758 -0.15953983 -0.73063469
0.71575576 -0.20162684 -0.77272159
0.82291210 -0.24309538 -0.81419021
0.93075907 -0.28387338 -0.85496813
1.03936887 -0.32388875 -0.89498347
1.14881337 -0.36306909 -0.93416393
1.25916517 -0.40134257 -0.97243726
1.37049592 -0.43863666 -1.00973141
0.42004350 -0.05146398 -0.77118379
0.52717590 -0.09295659 -0.81267643
0.63499618 -0.13376129 -0.85348105
0.74357653 -0.17380592 -0.89352572
0.85298926 -0.21301843 -0.93273807
0.96330613 -0.25132638 -0.97104609
1.07459974 -0.28865778 -1.00837755
1.18694210 -0.32494044 -1.04466021
1.30040526 -0.36010218 -1.07982206
0.33923435 0.01635185 -0.85199291
0.44778547 -0.02372205 -0.89206678
0.55716616 -0.06296636 -0.93131107
0.66744852 -0.10130890 -0.96965367
0.77870494 -0.13867755 -1.00702226
0.89100742 -0.17500007 -1.04334486
1.00442827 -0.21020439 -1.07854903
1.11903930 -0.24421820 -1.11256301
1.23491323 -0.27696946 -1.14531410
0.26134437 0.08708689 -0.92988294
0.37159234 0.04870987 -0.96825987
0.48281163 0.01130411 -1.00566566
0.59507430 -0.02505818 -1.04202783
0.70845270 -0.06030485 -1.07727468
0.82301867 -0.09436375 -1.11133349
0.93884474 -0.12716267 -1.14413249
1.05600286 -0.15862954 -1.17559922
1.17456567 -0.18869209 -1.20566177
0.18691970 0.16128717 -1.00430739
0.29914275 0.12488522 -1.04070950
0.41247872 0.08959621 -1.07599843
0.52699983 0.05549231 -1.11010242
0.64277828 0.02264577 -1.14294899
0.75988621 -0.00887138 -1.17446601
0.87839580 -0.03898683 -1.20458150
0.99837905 -0.06762841 -1.23322320
1.11990857 -0.09472412 -1.26031876
0.11650640 0.23949890 -1.07472086
0.23098266 0.20535012 -1.10886955
0.34671354 0.17245603 -1.14176369
0.46377119 0.14088880 -1.17333102
0.58222795 0.11072040 -1.20349908
0.70215577 0.08202338 -1.23219645
0.82362705 0.05486947 -1.25935006
0.94671381 0.02933124 -1.28488851
1.07148814 0.00548071 -1.30873919
0.05065059 0.32226816 -1.14057684
0.16765822 0.29065073 -1.17219388
0.28606218 0.26042974 -1.20241511
0.40593469 0.23167720 -1.23116767
0.52734780 0.20446537 -1.25837946
0.65037382 0.17886633 -1.28397834
0.77508485 0.15495235 -1.30789220
0.90155321 0.13279557 -1.33004904
1.02985072 0.11246830 -1.35037637
-0.01010159 0.41014096 -1.20132899
0.10971558 0.38133305 -1.23013663
0.23107077 0.35406330 -1.25740647
0.35403618 0.32840365 -1.28306592
0.47868395 0.30442649 -1.30704331
0.60508633 0.28220370 -1.32926583
0.73331535 0.26180777 -1.34966183
0.86344326 0.24331069 -1.36815894
0.99554223 0.22678477 -1.38468504
0.57078487 -0.19797263 -0.47181737
0.67672187 -0.24066067 -0.51450539
0.78265882 -0.28334871 -0.55719340
0.88880217 -0.32583034 -0.59967500
0.99559003 -0.36766756 -0.64151222
1.10302627 -0.40885618 -0.68270093
1.21118343 -0.44932416 -0.72316885
1.32013333 -0.48899919 -0.76284391
1.42994821 -0.52780914 -0.80165392
0.48697922 -0.13315324 -0.55562305
0.59310275 -0.17565477 -0.59812450
0.69986808 -0.21751440 -0.63998419
0.80727929 -0.25872824 -0.68119800
0.91540855 -0.29922399 -0.72169369
1.02432799 -0.33892947 -0.76139921
1.13410997 -0.37777257 -0.80024236
1.24482644 -0.41568106 -0.83815086
1.35654962 -0.45258284 -0.87505263
0.40414703 -0.06736043 -0.63845521
0.51153326 -0.10859931 -0.67969406
0.61963475 -0.14912269 -0.72021753
0.72852391 -0.18885855 -0.75995344
0.83827281 -0.22773468 -0.79882950
0.94895357 -0.26567882 -0.83677369
1.06063855 -0.30261898 -0.87371367
1.17339969 -0.33848271 -0.90957755
1.28730941 -0.37319812 -0.94429290
0.32386211 0.00097957 -0.71874011
0.43272096 -0.03878652 -0.75850636
0.54243696 -0.07769555 -0.79741538
0.65308219 -0.11567529 -0.83539504
0.76472890 -0.15265357 -0.87237334
0.87744921 -0.18855828 -0.90827799
0.99131536 -0.22331721 -0.94303685
1.10639930 -0.25685805 -0.97657788
1.22277355 -0.28910893 -1.00882864
0.24660239 0.07234486 -0.79599988
0.35721216 0.03432965 -0.83401513
0.46882075 -0.00268675 -0.87103158
0.58150029 -0.03863224 -0.90697694
0.69532287 -0.07343453 -0.94177938
0.81036091 -0.10702160 -0.97536629
0.92668635 -0.13932115 -1.00766587
1.04437160 -0.17026109 -1.03860569
1.16348827 -0.19976917 -1.06811392
0.17291401 0.14728150 -0.86968827
0.28555286 0.11129536 -0.90567446
0.39933217 0.07644969 -0.94052005
0.51432419 0.04281662 -0.97415304
0.63060093 0.01046848 -1.00650120
0.74823487 -0.02052277 -1.03749251
0.86729771 -0.05008474 -1.06705451
0.98786205 -0.07814550 -1.09511518
1.10999990 -0.10463274 -1.12160230
0.10334308 0.22633560 -0.93925917
0.21828917 0.19265671 -0.97293806
0.33451748 0.16025986 -1.00533485
0.45210004 0.12921751 -1.03637719
0.57110918 0.09960160 -1.06599319
0.69161695 0.07148442 -1.09411037
0.81369561 0.04493803 -1.12065661
0.93741727 0.02003467 -1.14555991
1.06285405 -0.00315338 -1.16874814
0.03843573 0.31005317 -1.00416636
0.15596724 0.27895966 -1.03525996
0.27492258 0.24929003 -1.06492960
0.39537394 0.22111642 -1.09310341
0.51739347 0.19451107 -1.11970878
0.64105350 0.16954592 -1.14467359
0.76642597 0.14629340 -1.16792607
0.89358324 0.12482566 -1.18939400
1.02259731 0.10521486 -1.20900488
-0.02126200 0.39898050 -1.06386423
0.09913310 0.37075049 -1.09209406
0.22109367 0.34408617 -1.11875844
0.34469205 0.31905943 -1.14378524
0.47000024 0.29574275 -1.16710210
0.59709054 0.27420795 -1.18863654
0.72603506 0.25452742 -1.20831716
0.85690594 0.23677340 -1.22607112
0.98977554 0.22101790 -1.24182677
0.55450916 -0.21424836 -0.33946806
0.66044605 -0.25693634 -0.38215610
0.76638311 -0.29962444 -0.42484415
0.87277901 -0.34185356 -0.46707326
0.97980547 -0.38345197 -0.50867176
1.08750808 -0.42437434 -0.54959410
1.19595897 -0.46454847 -0.58976823
1.30523014 -0.50390220 -0.62912202
1.41539419 -0.54236352 -0.66758311
0.47070354 -0.14942896 -0.42327371
0.57707131 -0.19168621 -0.46553096
0.68407434 -0.23330814 -0.50715292
0.79175085 -0.27425671 -0.54810137
0.90017283 -0.31445968 -0.58830434
1.00941265 -0.35384488 -0.62768954
1.11954224 -0.39234012 -0.66618484
1.23063421 -0.42987335 -0.70371801
1.34276032 -0.46637225 -0.74021697
0.38834408 -0.08316341 -0.50563318
0.49599448 -0.12413798 -0.54660779
0.60438782 -0.16436969 -0.58683944
0.71359622 -0.20378621 -0.62625605
0.82369208 -0.24231559 -0.66478527
0.93474710 -0.27988541 -0.70235515
1.04683387 -0.31642368 -0.73889333
1.16002452 -0.35185811 -0.77432781
1.27439094 -0.38611659 -0.80858636
0.30860391 -0.01427858 -0.58537328
0.41778105 -0.05372640 -0.62482119
0.52784288 -0.09228966 -0.66338444
0.63886142 -0.12989606 -0.70099080
0.75090903 -0.16647358 -0.73756832
0.86405760 -0.20194991 -0.77304471
0.97837955 -0.23625293 -0.80734766
1.09394693 -0.26931047 -0.84040529
1.21083200 -0.30105036 -0.87214518
0.23199506 0.05773754 -0.66198212
0.34297717 0.02009463 -0.69962507
0.45498550 -0.01652196 -0.73624176
0.56809241 -0.05204013 -0.77175981
0.68236989 -0.08638759 -0.80610734
0.79789025 -0.11949223 -0.83921200
0.91472548 -0.15128186 -0.87100172
1.03294814 -0.18168443 -0.90140414
1.15262985 -0.21062759 -0.93034738
0.15906362 0.13343108 -0.73491365
0.27212882 0.09787124 -0.77047348
0.38636196 0.06347941 -0.80486530
0.50183529 0.03032775 -0.83801699
0.61862093 -0.00151154 -0.86985630
0.73679107 -0.03196636 -0.90031111
0.85641801 -0.06096449 -0.92930919
0.97757375 -0.08843374 -0.95677853
1.10033059 -0.11430207 -0.98264664
0.09035565 0.21334815 -0.80362159
0.20578206 0.18014961 -0.83682019
0.32251820 0.14826071 -0.86870909
0.44063616 0.11775371 -0.89921612
0.56020820 0.08870065 -0.92826903
0.68130636 0.06117389 -0.95579582
0.80400300 0.03524545 -0.98172432
0.92837000 0.01098758 -1.00598216
1.05447984 -0.01152754 -1.02849746
0.02641726 0.29803485 -0.86755991
0.14448318 0.26747569 -0.89811909
0.26400036 0.23836794 -0.92722684
0.38504115 0.21078369 -0.95481104
0.50767761 0.18479528 -0.98079962
0.63198209 0.16047457 -1.00512028
0.75802648 0.13789397 -1.02770078
0.88588309 0.11712575 -1.04846907
1.01562417 0.09824193 -1.06735301
-0.03220530 0.38803720 -0.92618257
0.08877815 0.36039561 -0.95382398
0.21135461 0.33434719 -0.97987270
0.33559638 0.30996388 -1.00425577
0.46157551 0.28731811 -1.02690184
0.58936423 0.26648182 -1.04773796
0.71903479 0.24752721 -1.06669235
0.85065913 0.23052675 -1.08369303
0.98430973 0.21555230 -1.09866762
0.53823346 -0.23052405 -0.20711878
0.64417040 -0.27321208 -0.24980685
0.75019914 -0.31580836 -0.29240310
0.85684353 -0.35778898 -0.33438373
0.96411926 -0.39913812 -0.37573287
1.07209873 -0.43978372 -0.41637856
1.18085384 -0.47965366 -0.45624840
1.29045701 -0.51867563 -0.49527034
1.40098011 -0.55677742 -0.53337222
0.45450470 -0.16562784 -0.29084751
0.56112725 -0.20763031 -0.33285001
0.66837847 -0.24900395 -0.37422371
0.77633077 -0.28967679 -0.41489649
0.88505608 -0.32957649 -0.45479620
0.99462658 -0.36863086 -0.49385065
1.10511458 -0.40676782 -0.53198761
1.21659231 -0.44391519 -0.56913495
1.32913160 -0.48000073 -0.60522050
0.37263867 -0.09886888 -0.37271357
0.48056379 -0.13956872 -0.41341347
0.58925939 -0.17949811 -0.45334285
0.69879758 -0.21858490 -0.49242970
0.80925059 -0.25675690 -0.53060162
0.92069048 -0.29394192 -0.56778669
1.03318965 -0.33006790 -0.60391259
1.14681995 -0.36506248 -0.63890725
1.26165390 -0.39885366 -0.67269838
0.29346383 -0.02941862 -0.45188835
0.40296978 -0.06853771 -0.49100748
0.51338786 -0.10674468 -0.52921438
0.62479019 -0.14396732 -0.56643707
0.73724902 -0.18013343 -0.60260326
0.85083658 -0.21517098 -0.63764077
0.96562487 -0.24900770 -0.67147738
1.08168614 -0.28157136 -0.70404112
1.19909275 -0.31278992 -0.73525959
0.21752645 0.04326895 -0.52782583
0.32889131 0.00600882 -0.56508589
0.44130999 -0.03019747 -0.60129225
0.55485475 -0.06527781 -0.63637257
0.66959751 -0.09915991 -0.67025477
0.78561080 -0.13177179 -0.70286655
0.90296644 -0.16304106 -0.73413587
1.02173686 -0.19289565 -0.76399040
1.14199412 -0.22126347 -0.79235816
0.14537251 0.11973996 -0.59997964
0.25887448 0.08461695 -0.63510269
0.37357199 0.05068946 -0.66903025
0.48953718 0.01802962 -0.70169008
0.60684216 -0.01329032 -0.73301017
0.72555923 -0.04319826 -0.76291800
0.84576046 -0.07162195 -0.79134178
0.96751821 -0.09848943 -0.81820911
1.09090436 -0.12372822 -0.84344792
0.07754812 0.20054062 -0.66780406
0.19346535 0.16783288 -0.70051181
0.31071988 0.13646230 -0.73188239
0.42938367 0.10650119 -0.76184356
0.54952908 0.07802154 -0.79032320
0.67122817 0.05109569 -0.81724906
0.79455310 0.02579567 -0.84254909
0.91957629 0.00219366 -0.86615098
1.04636955 -0.01963800 -0.88798279
0.01459938 0.28621691 -0.73075283
0.13321011 0.25620261 -0.76076710
0.25329971 0.22766724 -0.78930253
0.37494037 0.20068288 -0.81628692
0.49820429 0.17532182 -0.84164804
0.62316358 0.15165606 -0.86531365
0.74989045 0.12975794 -0.88721174
0.87845719 0.10969964 -0.90727019
1.00893569 0.09155324 -0.92541653
-0.04292754 0.37731493 -0.78827977
0.07865479 0.35027227 -0.81532252
0.20185769 0.32485020 -0.84074461
0.32675335 0.30112082 -0.86447382
0.45341390 0.27915645 -0.88643831
0.58191162 0.25902909 -0.90656561
0.71231854 0.24081099 -0.92478377
0.84470701 0.22457445 -0.94102025
0.97914886 0.21039155 -0.95520329
0.52195770 -0.24679974 -0.07476948
0.62789470 -0.28948781 -0.11745755
0.73412335 -0.33188424 -0.15985394
0.84099996 -0.37363264 -0.20160234
0.94853538 -0.41472206 -0.24269179
1.05680215 -0.45508042 -0.28305018
1.16587210 -0.49463549 -0.32260525
1.27581739 -0.53331518 -0.36128491
1.38671029 -0.57104719 -0.39901698
0.43842080 -0.18171170 -0.15830645
0.54527456 -0.22348295 -0.20007768
0.65278453 -0.26459792 -0.24119265
0.76102304 -0.30498445 -0.28157923
0.87006205 -0.34457037 -0.32116517
0.97997391 -0.38328350 -0.35987830
1.09083080 -0.42105165 -0.39764649
1.20270479 -0.45780277 -0.43439749
1.31566799 -0.49346447 -0.47005928
0.35703471 -0.11447282 -0.23969257
0.46524510 -0.15488744 -0.28010711
0.57425344 -0.19450407 -0.31972381
0.68413180 -0.23325057 -0.35847035
0.79495269 -0.27105486 -0.39627454
0.90678787 -0.30784458 -0.43306434
1.01970983 -0.34354764 -0.46876743
1.13379049 -0.37809193 -0.50331169
1.24910223 -0.41140521 -0.53662497
0.27844590 -0.04443660 -0.31828132
0.38829112 -0.08321644 -0.35706112
0.49907592 -0.12105659 -0.39490134
0.61087263 -0.15788493 -0.43172967
0.72375321 -0.19362926 -0.46747407
0.83779001 -0.22821747 -0.50206220
0.95305514 -0.26157737 -0.53542203
1.06962085 -0.29363668 -0.56748134
1.18755925 -0.32432333 -0.59816802
0.20320052 0.02894305 -0.39352670
0.31495866 -0.00792380 -0.43039352
0.42779815 -0.04370929 -0.46617907
0.54179120 -0.07834135 -0.50081104
0.65700984 -0.11174767 -0.53421742
0.77352649 -0.14385615 -0.56632584
0.89141297 -0.17459455 -0.59706438
1.01074171 -0.20389080 -0.62636048
1.13158488 -0.23167273 -0.65414232
0.13184468 0.10621220 -0.46488255
0.24579398 0.07153648 -0.49955827
0.36096630 0.03808379 -0.53301096
0.47743389 0.00592622 -0.56516838
0.59526873 -0.02486384 -0.59595859
0.71454310 -0.05421445 -0.62530917
0.83532935 -0.08205324 -0.65314800
0.95769930 -0.10830823 -0.67940289
1.08172548 -0.13290715 -0.70400184
0.06492444 0.18791701 -0.53180277
0.18134308 0.15571052 -0.56400913
0.29912639 0.12486882 -0.59485084
0.41834658 0.09546405 -0.62425566
0.53907585 0.06756826 -0.65215141
0.66138631 0.04125381 -0.67846602
0.78535020 0.01659268 -0.70312703
0.91103971 -0.00634286 -0.72606254
1.03852701 -0.02748063 -0.74720031
0.00298601 0.27460346 -0.59374124
0.12215207 0.24514450 -0.62320018
0.24282448 0.21719199 -0.65115273
0.36507559 0.19081801 -0.67752671
0.48897731 0.16609484 -0.70224994
0.61460209 0.14309452 -0.72525018
0.74202186 0.12188929 -0.74645537
0.87130892 0.10255149 -0.76579326
1.00253558 0.08515301 -0.78319168
-0.05342469 0.36681780 -0.65015185
0.06876705 0.34038448 -0.67658520
0.19260679 0.31559929 -0.70137048
0.31816685 0.29253432 -0.72443539
0.44551933 0.27126184 -0.74570793
0.57473648 0.25185388 -0.76511574
0.70589042 0.23438278 -0.78258693
0.83905321 0.21892071 -0.79804897
0.97429729 0.20553973 -0.81143004
0.50568199 -0.26307544 0.05757977
0.61162764 -0.30575487 0.01490042
0.71813273 -0.34787479 -0.02721954
0.82525200 -0.38938043 -0.06872518
0.93305779 -0.43019968 -0.10954444
1.04162216 -0.47026026 -0.14960505
1.15101743 -0.50949013 -0.18883486
1.26131558 -0.54781699 -0.22716172
1.37258875 -0.58516872 -0.26451349
0.42242181 -0.19771069 -0.02568042
0.52951723 -0.23924020 -0.06720995
0.63729650 -0.28008601 -0.10805570
0.74583179 -0.32017580 -0.14814548
0.85519511 -0.35943747 -0.18740718
0.96545863 -0.39779881 -0.22576854
1.07669485 -0.43518770 -0.26315746
1.18897557 -0.47153193 -0.29950172
1.30237329 -0.50675941 -0.33472911
0.34153625 -0.12997127 -0.10656597
0.45004237 -0.17009014 -0.14668489
0.55937397 -0.20938355 -0.18597829
0.66960317 -0.24777931 -0.22437409
0.78080225 -0.28520527 -0.26179999
0.89304322 -0.32158920 -0.29818401
1.00639844 -0.35685903 -0.33345371
1.12093997 -0.39094239 -0.36753723
1.23674011 -0.42376739 -0.40036219
0.26355407 -0.05932845 -0.18454818
0.37374899 -0.09775855 -0.22297825
0.48491111 -0.13522145 -0.26044112
0.59711254 -0.17164502 -0.29686472
0.71042538 -0.20695701 -0.33217677
0.82492214 -0.24108544 -0.36630511
0.94067460 -0.27395797 -0.39917767
1.05775511 -0.30550238 -0.43072218
1.17623580 -0.33564666 -0.46086645
0.18902133 0.01476382 -0.25908086
0.30118325 -0.02169925 -0.29554397
0.41445404 -0.05705349 -0.33089820
0.52890587 -0.09122670 -0.36507139
0.64461082 -0.12414664 -0.39799142
0.76164126 -0.15574127 -0.42958608
0.88006908 -0.18593831 -0.45978317
0.99996674 -0.21466568 -0.48851046
1.12140632 -0.24185121 -0.51569593
0.11848421 0.09285165 -0.32961801
0.23289126 0.05863374 -0.36383596
0.34854886 0.02566640 -0.39680332
0.46552920 -0.00597827 -0.42844805
0.58390445 -0.03622802 -0.45869783
0.70374674 -0.06501079 -0.48748052
0.82512826 -0.09225419 -0.51472402
0.94812125 -0.11788630 -0.54035610
1.07279778 -0.14183480 -0.56430447
0.05248874 0.17548122 -0.39561352
0.16941908 0.14378665 -0.42730808
0.28774178 0.11348426 -0.45761049
0.40752876 0.08464636 -0.48644847
0.52885240 0.05734493 -0.51374984
0.65178478 0.03165239 -0.53944254
0.77639806 0.00764066 -0.56345421
0.90276456 -0.01461804 -0.58571279
1.03095615 -0.03505132 -0.60614610
-0.00841898 0.26319858 -0.45652121
0.11131291 0.23430547 -0.48541433
0.23257872 0.20694628 -0.51277351
0.35545063 0.18119319 -0.53852665
0.48000085 0.15711841 -0.56260145
0.60630143 0.13479404 -0.58492577
0.73442471 0.11429220 -0.60542762
0.86444271 0.09568533 -0.62403458
0.99642771 0.07904539 -0.64067459
-0.06369279 0.35654980 -0.51179504
0.05911884 0.33073628 -0.53760839
0.18360594 0.30659848 -0.56174624
0.30984092 0.28420842 -0.58413631
0.43789583 0.26363838 -0.60470641
0.56784284 0.24496037 -0.62338436
0.69975424 0.22824673 -0.64009798
0.83370209 0.21356961 -0.65477514
0.96975851 0.20100108 -0.66734374
0.48940632 -0.27935117 0.18992911
0.59550071 -0.32188186 0.14739849
0.70223147 -0.36377609 0.10550416
0.80960399 -0.40502855 0.06425174
0.91769046 -0.44556704 0.02371322
1.02656305 -0.48531941 -0.01603915
1.13629401 -0.52421349 -0.05493321
1.24695551 -0.56217706 -0.09289681
1.35861945 -0.59913796 -0.12985775
0.40651175 -0.21362075 0.10703452
0.51385939 -0.25489807 0.06575714
0.62191832 -0.29546416 0.02519114
0.73076081 -0.33524671 -0.01459145
0.84045881 -0.37417361 -0.05351836
0.95108473 -0.41217273 -0.09151749
1.06271064 -0.44917181 -0.12851658
1.17540884 -0.48509881 -0.16444352
1.28925109 -0.51988137 -0.19922614
0.32614732 -0.14536020 0.02667013
0.43495962 -0.18517287 -0.01314260
0.54462492 -0.22413252 -0.05210227
0.65521544 -0.26216707 -0.09013681
0.76680332 -0.29920426 -0.12717395
0.87946057 -0.33517188 -0.16314167
0.99325961 -0.36999786 -0.19796762
1.10827255 -0.40360999 -0.23157977
1.22457147 -0.43593609 -0.26390585
0.24879226 -0.07409018 -0.05068496
0.35934746 -0.11216003 -0.08875475
0.47089735 -0.14923517 -0.12582992
0.58351409 -0.18524347 -0.16183820
0.69726974 -0.22011271 -0.19670749
0.81223673 -0.25377080 -0.23036554
0.92848700 -0.28614551 -0.26274019
1.04609275 -0.31716460 -0.29375941
1.16512644 -0.34675601 -0.32335085
0.17499280 0.00073532 -0.12448442
0.28756902 -0.03531350 -0.16053323
0.40128154 -0.07022592 -0.19544570
0.51620269 -0.10392988 -0.22914955
0.63240445 -0.13635302 -0.26157275
0.74995911 -0.16742329 -0.29264304
0.86893886 -0.19706848 -0.32228830
0.98941600 -0.22521657 -0.35043627
1.11146247 -0.25179514 -0.37701485
0.10529497 0.07966246 -0.19418225
0.22017035 0.04591283 -0.22793186
0.33632377 0.01344125 -0.26040345
0.45382744 -0.01768012 -0.29152483
0.57275349 -0.04737902 -0.32122377
0.69317412 -0.07558340 -0.34942806
0.81516159 -0.10222095 -0.37606576
0.93878788 -0.12721965 -0.40106434
1.06412530 -0.15050727 -0.42435193
0.04024481 0.16323742 -0.25923240
0.15769757 0.13206509 -0.29040468
0.27657002 0.10231252 -0.32015717
0.39693439 0.07405193 -0.34841779
0.51886290 0.04735540 -0.37511438
0.64242762 0.02229516 -0.40017462
0.76770085 -0.00105667 -0.42352641
0.89475477 -0.02262789 -0.44509757
1.02366126 -0.04234627 -0.46481603
-0.01961143 0.25200614 -0.31908864
0.10069684 0.22368932 -0.34740540
0.22256646 0.19693403 -0.37416074
0.34606975 0.17181227 -0.39928252
0.47127879 0.14839639 -0.42269844
0.59826583 0.12675835 -0.44433641
0.72710305 0.10697049 -0.46412426
0.85786247 0.08910501 -0.48198983
0.99061644 0.07323402 -0.49786088
-0.07372770 0.34651476 -0.37320498
0.04971420 0.32133165 -0.39838806
0.17485920 0.29785174 -0.42186803
0.30177957 0.27614701 -0.44357264
0.43054736 0.25628990 -0.46342993
0.56123483 0.23835233 -0.48136738
0.69391418 0.22240658 -0.49731308
0.82865739 0.20852491 -0.51119494
0.96553683 0.19677946 -0.52294046
0.47313061 -0.29562688 0.32227844
0.57945651 -0.33792600 0.27997929
0.68642342 -0.37958407 0.23832121
0.79405963 -0.42057279 0.19733250
0.90243733 -0.46082008 0.15708518
1.01162887 -0.50025374 0.11765152
1.12170601 -0.53880161 0.07910368
1.23274124 -0.57639140 0.04151390
1.34480655 -0.61295104 0.00495422
0.39069459 -0.22943790 0.23984233
0.49830490 -0.27045256 0.19882771
0.60665411 -0.31072843 0.15855190
0.71581429 -0.35019329 0.11908697
0.82585758 -0.38877496 0.08050533
0.93685621 -0.42640129 0.04287896
1.04888237 -0.46300015 0.00628012
1.16200829 -0.49849930 -0.02921899
1.27630603 -0.53282654 -0.06354633
0.31087187 -0.16063564 0.16001967
0.42000091 -0.20013160 0.12052368
0.53001046 -0.23874703 0.08190820
0.64097267 -0.27640983 0.04424547
0.75295979 -0.31304774 0.00760756
0.86604381 -0.34858859 -0.02793335
0.98029727 -0.38296038 -0.06230504
1.09579182 -0.41609061 -0.09543537
1.21260023 -0.44790742 -0.12725213
0.23416464 -0.08871786 0.08331242
0.34509057 -0.12641700 0.04561337
0.45703864 -0.16309386 0.00893641
0.57008111 -0.19867641 -0.02664607
0.68429017 -0.23309237 -0.06106211
0.79973793 -0.26626962 -0.09423933
0.91649652 -0.29813606 -0.12610571
1.03463817 -0.32861930 -0.15658903
1.15423512 -0.35764745 -0.18561712
0.16111903 -0.01313852 0.01026681
0.27411991 -0.04876254 -0.02535731
0.38828477 -0.08322274 -0.05981745
0.50368571 -0.11644689 -0.09304156
0.62039483 -0.14836273 -0.12495746
0.73848438 -0.17889825 -0.15549293
0.85802644 -0.20798108 -0.18457583
0.97909331 -0.23553924 -0.21213391
1.10175705 -0.26150045 -0.23809513
0.09228109 0.06664852 -0.05857112
0.20763519 0.03337771 -0.09184203
0.32429492 0.00141237 -0.12380728
0.44233242 -0.02917518 -0.15439481
0.56181979 -0.05831276 -0.18353242
0.68282932 -0.08592829 -0.21114792
0.80543298 -0.11194944 -0.23716919
0.92970330 -0.13630435 -0.26152402
1.05571198 -0.15892053 -0.28414017
0.02819690 0.15118943 -0.12265529
0.14618242 0.12054990 -0.15329480
0.26561522 0.09135763 -0.18248698
0.38656741 0.06368491 -0.21015981
0.50911123 0.03760369 -0.23624100
0.63331890 0.01318635 -0.26065838
0.75926244 -0.00949508 -0.28333974
0.88701421 -0.03036842 -0.30421311
1.01664615 -0.04936135 -0.32320607
-0.03058738 0.24103019 -0.18143958
0.09030770 0.21330017 -0.20916951
0.21279170 0.18715921 -0.23531054
0.33693683 0.16267930 -0.25979039
0.46281523 0.13993277 -0.28253692
0.59049916 0.11899166 -0.30347809
0.72006077 0.09992822 -0.32254151
0.85157216 0.08281460 -0.33965513
0.98510551 0.06772307 -0.35474673
-0.08352558 0.33671689 -0.23437782
0.04055716 0.31217459 -0.25892007
0.16637056 0.28936303 -0.28173169
0.29398677 0.26835421 -0.30274045
0.42347798 0.24922046 -0.32187429
0.55491638 0.23203380 -0.33906090
0.68837416 0.21686645 -0.35422817
0.82392335 0.20379075 -0.36730400
0.96163619 0.19287872 -0.37821609
0.45691016 -0.31184733 0.45468298
0.56349915 -0.35388336 0.41264689
0.67071271 -0.39529473 0.37123549
0.77862316 -0.43600929 0.33052096
0.88730258 -0.47595489 0.29057544
0.99682319 -0.51505929 0.25147092
1.10725713 -0.55325043 0.21327989
1.21867645 -0.59045589 0.17607430
1.33115375 -0.62660384 0.13992646
0.37497431 -0.24515815 0.37274712
0.48285785 -0.28589964 0.33200562
0.59150767 -0.32587481 0.29203051
0.70099604 -0.36501145 0.25289384
0.81139505 -0.40323734 0.21466793
0.92277700 -0.44048047 0.17742480
1.03521395 -0.47666854 0.14123671
1.14877808 -0.51172948 0.10617580
1.26354170 -0.54559094 0.07231436
0.29571396 -0.17579356 0.29348671
0.40517017 -0.21496230 0.25431791
0.51553446 -0.25322303 0.21605723
0.62687892 -0.29050362 0.17877673
0.73927581 -0.32673180 0.14254853
0.85279709 -0.36183536 0.10744482
0.96751517 -0.39574230 0.07353796
1.08350217 -0.42838031 0.04089996
1.20083034 -0.45967722 0.00960300
0.21967506 -0.10320738 0.21744783
0.33098227 -0.14052531 0.18013002
0.44333905 -0.17679344 0.14386183
0.55681777 -0.21193974 0.10871560
0.67149055 -0.24589193 0.07476337
0.78742951 -0.27857783 0.04207735
0.90470701 -0.30992544 0.01072983
1.02339506 -0.33986241 -0.01920721
1.14356577 -0.36831665 -0.04766141
0.14740387 -0.02685359 0.14517662
0.26084006 -0.06204243 0.10998785
0.37546766 -0.09603984 0.07599049
0.49135882 -0.12877367 0.04325660
0.60858572 -0.16017172 0.01185851
0.72722059 -0.19016193 -0.01813166
0.84733558 -0.21867192 -0.04664172
0.96900272 -0.24562973 -0.07359952
1.09229434 -0.27096307 -0.09893283
0.07944644 0.05381393 0.07721924
0.19528988 0.02103232 0.04443765
0.31246632 -0.01041613 0.01298910
0.43104810 -0.04045939 -0.01705410
0.55110729 -0.06902513 -0.04561992
0.67271620 -0.09604134 -0.07263607
0.79594672 -0.12143564 -0.09803049
0.92087138 -0.14513615 -0.12173091
1.04756200 -0.16707048 -0.14366515
0.01634882 0.13934135 0.01412163
0.13487762 0.10924517 -0.01597459
0.25488120 0.08062374 -0.04459601
0.37643170 0.05354930 -0.07167049
0.49960142 0.02809396 -0.09712581
0.62446243 0.00432996 -0.12088984
0.75108689 -0.01767063 -0.14289035
0.87954688 -0.03783551 -0.16305526
1.00991488 -0.05609253 -0.18131235
-0.04134282 0.23027477 -0.04357005
0.08014953 0.20314206 -0.07070266
0.20325837 0.17762595 -0.09621887
0.32805586 0.15379839 -0.12004638
0.45461413 0.13173173 -0.14211309
0.58300543 0.11149801 -0.16234680
0.71330190 0.09316941 -0.18067533
0.84557569 0.07681826 -0.19702652
0.97989899 0.06251666 -0.21132827
-0.09308243 0.32716018 -0.09530960
0.03165165 0.30326921 -0.11920056
0.15814388 0.28113648 -0.14133333
0.28646651 0.26083401 -0.16163573
0.41669154 0.24243420 -0.18003567
0.54889137 0.22600891 -0.19646081
0.68313801 0.21163051 -0.21083924
0.81950366 0.19937123 -0.22309858
0.95806056 0.18930304 -0.23316669
