G Major 3 (Traditional).cube
# VEGAS Pro LUT
TITLE "G Major 3 (Traditional)"
LUT_3D_SIZE 33
0.58706057 -0.18169695 -0.60416669
0.61354482 -0.19236892 -0.61483866
0.64002901 -0.20304093 -0.62551069
0.66651332 -0.21371296 -0.63618267
0.69299752 -0.22438495 -0.64685476
0.71948177 -0.23505698 -0.65752673
0.74596608 -0.24572900 -0.66819876
0.77245027 -0.25640100 -0.67887068
0.79893452 -0.26707304 -0.68954277
0.82541871 -0.27774501 -0.70021474
0.85190302 -0.28841707 -0.71088678
0.87838727 -0.29908904 -0.72155875
0.90490919 -0.30972335 -0.73219305
0.93149477 -0.32029396 -0.74276376
0.95811582 -0.33082917 -0.75329894
0.98477340 -0.34132782 -0.76379758
1.01146865 -0.35178882 -0.77425855
1.03820276 -0.36221093 -0.78468066
1.06497693 -0.37259316 -0.79506290
1.09179199 -0.38293433 -0.80540401
1.11864936 -0.39323324 -0.81570297
1.14554989 -0.40348887 -0.82595861
1.17249489 -0.41370001 -0.83616978
1.19948566 -0.42386565 -0.84633535
1.22652304 -0.43398446 -0.85645425
1.25360811 -0.44405550 -0.86652529
1.28074229 -0.45407754 -0.87654740
1.30792665 -0.46404958 -0.88651937
1.33516228 -0.47397041 -0.89644015
1.36245000 -0.48383880 -0.90630859
1.38979113 -0.49365363 -0.91612357
1.41718721 -0.50341409 -0.92588389
1.44463885 -0.51311874 -0.93558848
0.56610918 -0.16549209 -0.62511802
0.59259337 -0.17616409 -0.63579011
0.61907768 -0.18683612 -0.64646208
0.64556181 -0.19750810 -0.65713412
0.67204612 -0.20818010 -0.66780609
0.69853044 -0.21885215 -0.67847812
0.72501463 -0.22952417 -0.68915009
0.75149888 -0.24019617 -0.69982207
0.77798307 -0.25086817 -0.71049410
0.80446732 -0.26154014 -0.72116613
0.83098620 -0.27217752 -0.73180348
0.85757053 -0.28274944 -0.74237543
0.88419032 -0.29328603 -0.75291193
0.91084647 -0.30378598 -0.76341194
0.93754041 -0.31424841 -0.77387440
0.96427315 -0.32467201 -0.78429794
0.99104559 -0.33505571 -0.79468167
1.01785910 -0.34539834 -0.80502433
1.04471493 -0.35569888 -0.81532490
1.07161391 -0.36595607 -0.82558209
1.09855723 -0.37616888 -0.83579487
1.12554634 -0.38633627 -0.84596217
1.15258193 -0.39645684 -0.85608280
1.17966533 -0.40652961 -0.86615562
1.20679772 -0.41655356 -0.87617952
1.23398006 -0.42652741 -0.88615334
1.26121378 -0.43645012 -0.89607608
1.28849959 -0.44632044 -0.90594643
1.31583881 -0.45613736 -0.91576332
1.34323263 -0.46589971 -0.92552567
1.37068236 -0.47560647 -0.93523240
1.39818883 -0.48525637 -0.94488227
1.42575312 -0.49484825 -0.95447421
0.54515779 -0.14928724 -0.64606947
0.57164198 -0.15995926 -0.65674150
0.59812623 -0.17063126 -0.66741353
0.62461048 -0.18130326 -0.67808557
0.65109479 -0.19197530 -0.68875754
0.67757893 -0.20264727 -0.69942957
0.70406324 -0.21331932 -0.71010154
0.73054743 -0.22399132 -0.72077358
0.75706333 -0.23463166 -0.73141390
0.78364646 -0.24520493 -0.74198711
0.81026477 -0.25574276 -0.75252503
0.83691967 -0.26624417 -0.76302642
0.86361206 -0.27670789 -0.77349019
0.89034331 -0.28713298 -0.78391522
0.91711432 -0.29751810 -0.79430038
0.94392639 -0.30786231 -0.80464464
0.97078049 -0.31816441 -0.81494671
0.99767798 -0.32842326 -0.82520550
1.02461970 -0.33863771 -0.83541995
1.05160701 -0.34880677 -0.84558898
1.07864094 -0.35892910 -0.85571134
1.10572255 -0.36900365 -0.86578590
1.13285315 -0.37902939 -0.87581164
1.16003358 -0.38900506 -0.88578737
1.18726528 -0.39892963 -0.89571196
1.21454918 -0.40880197 -0.90558428
1.24188662 -0.41862088 -0.91540319
1.26927853 -0.42838532 -0.92516762
1.29672599 -0.43809405 -0.93487638
1.32423031 -0.44774613 -0.94452834
1.35179245 -0.45734018 -0.95412242
1.37941360 -0.46687517 -0.96365750
1.40709484 -0.47635004 -0.97313237
0.52420640 -0.13308237 -0.66702086
0.55069059 -0.14375441 -0.67769289
0.57717484 -0.15442640 -0.68836486
0.60365903 -0.16509843 -0.69903696
0.63014334 -0.17577045 -0.70970887
0.65662748 -0.18644242 -0.72038090
0.68314052 -0.19708583 -0.73102421
0.70972222 -0.20766029 -0.74159878
0.73633921 -0.21819945 -0.75213796
0.76299280 -0.22870219 -0.76264066
0.78968394 -0.23916742 -0.77310586
0.81641364 -0.24959388 -0.78353238
0.84318328 -0.25998056 -0.79391903
0.86999369 -0.27032626 -0.80426478
0.89684635 -0.28062993 -0.81456840
0.92374212 -0.29089040 -0.82482886
0.95068228 -0.30110651 -0.83504504
0.97766781 -0.31127715 -0.84521568
1.00469995 -0.32140124 -0.85533977
1.03177989 -0.33147764 -0.86541611
1.05890858 -0.34150517 -0.87544376
1.08608723 -0.35148275 -0.88542128
1.11331701 -0.36140925 -0.89534771
1.14059913 -0.37128353 -0.90522194
1.16793442 -0.38110441 -0.91504288
1.19532430 -0.39087087 -0.92480934
1.22276962 -0.40058166 -0.93452013
1.25027168 -0.41023570 -0.94417417
1.27783179 -0.41983193 -0.95377046
1.30545080 -0.42936924 -0.96330768
1.33313012 -0.43884638 -0.97278482
1.36087036 -0.44826221 -0.98220068
1.38867319 -0.45761579 -0.99155420
0.50325501 -0.11687757 -0.68797231
0.52973920 -0.12754957 -0.69864434
0.55622345 -0.13822156 -0.70931631
0.58270770 -0.14889359 -0.71998835
0.60921758 -0.15953983 -0.73063469
0.63579816 -0.17011563 -0.74121034
0.66241395 -0.18065612 -0.75175089
0.68906599 -0.19116023 -0.76225495
0.71575576 -0.20162684 -0.77272159
0.74248403 -0.21205476 -0.78314948
0.76925212 -0.22244291 -0.79353768
0.79606104 -0.23279013 -0.80388492
0.82291210 -0.24309538 -0.81419021
0.84980625 -0.25335744 -0.82445210
0.87674475 -0.26357520 -0.83467001
0.90372860 -0.27374753 -0.84484237
0.93075907 -0.28387338 -0.85496813
0.95783722 -0.29395157 -0.86504632
0.98496419 -0.30398095 -0.87507564
1.01214099 -0.31396034 -0.88505507
1.03936887 -0.32388875 -0.89498347
1.06664884 -0.33376491 -0.90485972
1.09398222 -0.34358776 -0.91468257
1.12136996 -0.35335624 -0.92445099
1.14881337 -0.36306909 -0.93416393
1.17631340 -0.37272531 -0.94382018
1.20387137 -0.38232374 -0.95341849
1.23148811 -0.39186311 -0.96295792
1.25916517 -0.40134257 -0.97243726
1.28690326 -0.41076070 -0.98185533
1.31470346 -0.42011648 -0.99121124
1.34256732 -0.42940882 -1.00050366
1.37049592 -0.43863666 -1.00973141
0.48230356 -0.10067271 -0.70892370
0.50878781 -0.11134471 -0.71959573
0.53529489 -0.12199387 -0.73024487
0.56187409 -0.13257091 -0.74082184
0.58848858 -0.14311276 -0.75136364
0.61513931 -0.15361822 -0.76186919
0.64182758 -0.16408619 -0.77233714
0.66855448 -0.17451556 -0.78276652
0.69532102 -0.18490517 -0.79315615
0.72212857 -0.19525401 -0.80350500
0.74897796 -0.20556076 -0.81381178
0.77587056 -0.21582446 -0.82407546
0.80280733 -0.22604385 -0.83429486
0.82978964 -0.23621796 -0.84446895
0.85681832 -0.24634548 -0.85459650
0.88389462 -0.25642538 -0.86467642
0.91101968 -0.26645654 -0.87470758
0.93819463 -0.27643785 -0.88468879
0.96542060 -0.28636810 -0.89461911
0.99269879 -0.29624629 -0.90449727
1.02003014 -0.30607116 -0.91432214
1.04741585 -0.31584162 -0.92409259
1.07485712 -0.32555652 -0.93380761
1.10235512 -0.33521485 -0.94346589
1.12991095 -0.34481543 -0.95306641
1.15752554 -0.35435700 -0.96260792
1.18520021 -0.36383855 -0.97208959
1.21293604 -0.37325907 -0.98150998
1.24073410 -0.38261718 -0.99086815
1.26859570 -0.39191192 -1.00016284
1.29652166 -0.40114200 -1.00939310
1.32451344 -0.41030651 -1.01855755
1.35257185 -0.41940427 -1.02765536
0.46137217 -0.08444786 -0.72985512
0.48795009 -0.09502617 -0.74043339
0.51456320 -0.10556929 -0.75097662
0.54121262 -0.11607611 -0.76148343
0.56789947 -0.12654550 -0.77195269
0.59462494 -0.13697629 -0.78238362
0.62139004 -0.14736746 -0.79277468
0.64819604 -0.15771775 -0.80312502
0.67504394 -0.16802609 -0.81343335
0.70193487 -0.17829138 -0.82369864
0.72887009 -0.18851247 -0.83391976
0.75585055 -0.19868818 -0.84409547
0.78287756 -0.20881748 -0.85422462
0.80995202 -0.21889916 -0.86430645
0.83707535 -0.22893214 -0.87433946
0.86424845 -0.23891532 -0.88432252
0.89147252 -0.24884750 -0.89425468
0.91874874 -0.25872755 -0.90413475
0.94607806 -0.26855439 -0.91396159
0.97346187 -0.27832690 -0.92373413
1.00090110 -0.28804392 -0.93345112
1.02839696 -0.29770428 -0.94311154
1.05595052 -0.30730695 -0.95271420
1.08356297 -0.31685072 -0.96225804
1.11123538 -0.32633460 -0.97174180
1.13896894 -0.33575732 -0.98116457
1.16676486 -0.34511775 -0.99052501
1.19462383 -0.35441482 -0.99982208
1.22254753 -0.36364734 -1.00905466
1.25053692 -0.37281430 -1.01822174
1.27859306 -0.38191450 -1.02732193
1.30671704 -0.39094684 -1.03635418
1.33490992 -0.39991009 -1.04531741
0.44063798 -0.06802583 -0.75058931
0.46728599 -0.07853398 -0.76109743
0.49397147 -0.08900474 -0.77156824
0.52069551 -0.09943703 -0.78200048
0.54745913 -0.10982963 -0.79239309
0.57426357 -0.12018146 -0.80274493
0.60110992 -0.13049138 -0.81305480
0.62799925 -0.14075828 -0.82332176
0.65493274 -0.15098095 -0.83354449
0.68191165 -0.16115838 -0.84372187
0.70893681 -0.17128943 -0.85385293
0.73600960 -0.18137287 -0.86393642
0.76313102 -0.19140768 -0.87397122
0.79030240 -0.20139270 -0.88395619
0.81752455 -0.21132676 -0.89389026
0.84479880 -0.22120877 -0.90377229
0.87212622 -0.23103757 -0.91360104
0.89950788 -0.24081211 -0.92337561
0.92694509 -0.25053114 -0.93309468
0.95443881 -0.26019365 -0.94275719
0.98199022 -0.26979846 -0.95236206
1.00960052 -0.27934447 -0.96190804
1.03727067 -0.28883052 -0.97139400
1.06500208 -0.29825550 -0.98081899
1.09279561 -0.30761826 -0.99018162
1.12065232 -0.31691772 -0.99948102
1.14857364 -0.32615262 -1.00871611
1.17656052 -0.33532202 -1.01788545
1.20461404 -0.34442466 -1.02698815
1.23273563 -0.35345951 -1.03602290
1.26092589 -0.36242533 -1.04498875
1.28918636 -0.37132108 -1.05388451
1.31751823 -0.38014561 -1.06270897
0.42004350 -0.05146398 -0.77118379
0.44676608 -0.06189767 -0.78161746
0.47352824 -0.07229175 -0.79201156
0.50033116 -0.08264510 -0.80236477
0.52717590 -0.09295659 -0.81267643
0.55406368 -0.10322508 -0.82294476
0.58099562 -0.11344948 -0.83316910
0.60797268 -0.12362856 -0.84334826
0.63499618 -0.13376129 -0.85348105
0.66206723 -0.14384656 -0.86356628
0.68918687 -0.15388311 -0.87360287
0.71635628 -0.16387001 -0.88358968
0.74357653 -0.17380592 -0.89352572
0.77084881 -0.18368988 -0.90340960
0.79817432 -0.19352069 -0.91324037
0.82555407 -0.20329723 -0.92301691
0.85298926 -0.21301843 -0.93273807
0.88048083 -0.22268300 -0.94240272
0.90803015 -0.23228997 -0.95200962
0.93563819 -0.24183811 -0.96155781
0.96330613 -0.25132638 -0.97104609
0.99103516 -0.26075360 -0.98047328
1.01882625 -0.27011859 -0.98983836
1.04668081 -0.27942041 -0.99914026
1.07459974 -0.28865778 -1.00837755
1.10258412 -0.29782963 -1.01754940
1.13063538 -0.30693477 -1.02665448
1.15875423 -0.31597209 -1.03569186
1.18694210 -0.32494044 -1.04466021
1.21519995 -0.33383888 -1.05355859
1.24352908 -0.34266600 -1.06238568
1.27193046 -0.35142082 -1.07114065
1.30040526 -0.36010218 -1.07982206
0.39959741 -0.03475384 -0.79162973
0.42639884 -0.04510872 -0.80198467
0.45324203 -0.05542174 -0.81229770
0.48012820 -0.06569184 -0.82256776
0.50705844 -0.07591785 -0.83279377
0.53403383 -0.08609861 -0.84297466
0.56105566 -0.09623311 -0.85310912
0.58812493 -0.10632011 -0.86319607
0.61524272 -0.11635852 -0.87323451
0.64241028 -0.12634721 -0.88322324
0.66962868 -0.13628510 -0.89316112
0.69689906 -0.14617094 -0.90304697
0.72422254 -0.15600371 -0.91287971
0.75160027 -0.16578229 -0.92265832
0.77903330 -0.17550547 -0.93238151
0.80652279 -0.18517216 -0.94204819
0.83407003 -0.19478129 -0.95165724
0.86167586 -0.20433164 -0.96120769
0.88934171 -0.21382216 -0.97069812
0.91706836 -0.22325161 -0.98012763
0.94485730 -0.23261900 -0.98949510
0.97270936 -0.24192311 -0.99879909
1.00062597 -0.25116289 -1.00803888
1.02860796 -0.26033708 -1.01721311
1.05665660 -0.26944470 -1.02632070
1.08477283 -0.27848452 -1.03536057
1.11295831 -0.28745553 -1.04433143
1.14121342 -0.29635644 -1.05323243
1.16954005 -0.30518624 -1.06206226
1.19793868 -0.31394380 -1.07081985
1.22641098 -0.32262796 -1.07950389
1.25495756 -0.33123752 -1.08811355
1.28357995 -0.33977148 -1.09664750
0.37930813 -0.01788682 -0.81191903
0.40619275 -0.02815855 -0.82219070
0.43312135 -0.03838618 -0.83241838
0.46009514 -0.04856870 -0.84260088
0.48711517 -0.05870487 -0.85273707
0.51418263 -0.06879362 -0.86282581
0.54129869 -0.07883386 -0.87286609
0.56846440 -0.08882441 -0.88285661
0.59568083 -0.09876412 -0.89279634
0.62294930 -0.10865194 -0.90268409
0.65027088 -0.11848675 -0.91251892
0.67764646 -0.12826723 -0.92229950
0.70507747 -0.13799250 -0.93202472
0.73256499 -0.14766136 -0.94169348
0.76010996 -0.15727255 -0.95130479
0.78771365 -0.16682512 -0.96085733
0.81537724 -0.17631783 -0.97035003
0.84310174 -0.18574962 -0.97978175
0.87088829 -0.19511925 -0.98915154
0.89873809 -0.20442574 -0.99845803
0.92665213 -0.21366782 -1.00770020
0.95463175 -0.22284451 -1.01687682
0.98267782 -0.23195457 -1.02598691
1.01079178 -0.24099696 -1.03502929
1.03897452 -0.24997047 -1.04400289
1.06722736 -0.25887406 -1.05290627
1.09555101 -0.26770645 -1.06173873
1.12394714 -0.27646667 -1.07049906
1.15241647 -0.28515351 -1.07918572
1.18096042 -0.29376590 -1.08779812
1.20957994 -0.30230257 -1.09633493
1.23827600 -0.31076258 -1.10479486
1.26705027 -0.31914473 -1.11317694
0.35918429 -0.00085445 -0.83204293
0.38615638 -0.01103862 -0.84222710
0.41317469 -0.02117653 -0.85236496
0.44024044 -0.03126708 -0.86245555
0.46735466 -0.04130909 -0.87249756
0.49451849 -0.05130148 -0.88248998
0.52173305 -0.06124309 -0.89243162
0.54899961 -0.07113284 -0.90232140
0.57631916 -0.08096960 -0.91215813
0.60369277 -0.09075214 -0.92194068
0.63112175 -0.10047944 -0.93166798
0.65860713 -0.11015034 -0.94133890
0.68615001 -0.11976375 -0.95095229
0.71375155 -0.12931846 -0.96050704
0.74141282 -0.13881341 -0.97000188
0.76913512 -0.14824739 -0.97943592
0.79691929 -0.15761936 -0.98880792
0.82476676 -0.16692822 -0.99811673
0.85267842 -0.17617269 -1.00736129
0.88065565 -0.18535185 -1.01654029
0.90869939 -0.19446439 -1.02565289
0.93681073 -0.20350924 -1.03469789
0.96499097 -0.21248537 -1.04367375
0.99324101 -0.22139147 -1.05257988
1.02156222 -0.23022658 -1.06141496
1.04995561 -0.23898941 -1.07017779
1.07842231 -0.24767900 -1.07886744
1.10696328 -0.25629407 -1.08748257
1.13558018 -0.26483366 -1.09602201
1.16427350 -0.27329648 -1.10448492
1.19304466 -0.28168154 -1.11286998
1.22189498 -0.28998762 -1.12117612
1.25082529 -0.29821363 -1.12940204
0.33923435 0.01635185 -0.85199291
0.36629829 0.00625955 -0.86208516
0.39341074 -0.00378430 -0.87212896
0.42057273 -0.01377852 -0.88212323
0.44778547 -0.02372205 -0.89206678
0.47505003 -0.03361370 -0.90195847
0.50236762 -0.04345241 -0.91179711
0.52973926 -0.05323699 -0.92158169
0.55716616 -0.06296636 -0.93131107
0.58464938 -0.07263935 -0.94098413
0.61219013 -0.08225486 -0.95059961
0.63978952 -0.09181179 -0.96015644
0.66744852 -0.10130890 -0.96965367
0.69516855 -0.11074521 -0.97908992
0.72295058 -0.12011951 -0.98846418
0.75079560 -0.12943062 -0.99777532
0.77870494 -0.13867755 -1.00702226
0.80667967 -0.14785907 -1.01620376
0.83472097 -0.15697411 -1.02531886
0.86282980 -0.16602147 -1.03436625
0.89100742 -0.17500007 -1.04334486
0.91925490 -0.18390879 -1.05225360
0.94757348 -0.19274652 -1.06109130
0.97596419 -0.20151210 -1.06985688
1.00442827 -0.21020439 -1.07854903
1.03296649 -0.21882221 -1.08716702
1.06158042 -0.22736460 -1.09570944
1.09027112 -0.23583031 -1.10417509
1.11903930 -0.24421820 -1.11256301
1.14788663 -0.25252724 -1.12087190
1.17681384 -0.26075613 -1.12910080
1.20582235 -0.26890391 -1.13724875
1.23491323 -0.27696946 -1.14531410
0.31946689 0.03374058 -0.87176043
0.34662703 0.02374451 -0.88175648
0.37383789 0.01379910 -0.89170188
0.40110052 0.00390550 -0.90159547
0.42841607 -0.00593515 -0.91143620
0.45578575 -0.01572174 -0.92122281
0.48321059 -0.02545315 -0.93095416
0.51069176 -0.03512825 -0.94062924
0.53823036 -0.04474589 -0.95024693
0.56582755 -0.05430497 -0.95980603
0.59348440 -0.06380433 -0.96930540
0.62120211 -0.07324287 -0.97874391
0.64898181 -0.08261949 -0.98812050
0.67682457 -0.09193301 -0.99743390
0.70473152 -0.10118228 -1.00668311
0.73270380 -0.11036621 -1.01586735
0.76074249 -0.11948369 -1.02498472
0.78884900 -0.12853363 -1.03403461
0.81702399 -0.13751477 -1.04301572
0.84526896 -0.14642605 -1.05192709
0.87358487 -0.15526640 -1.06076741
0.90197289 -0.16403466 -1.06953561
0.93043411 -0.17272964 -1.07823062
0.95896971 -0.18135029 -1.08685136
0.98758084 -0.18989542 -1.09539652
1.01626849 -0.19836396 -1.10386503
1.04503393 -0.20675471 -1.11225581
1.07387829 -0.21506664 -1.12056768
1.10280263 -0.22329855 -1.12879956
1.13180816 -0.23144937 -1.13695037
1.16089594 -0.23951799 -1.14501894
1.19006705 -0.24750310 -1.15300405
1.21932268 -0.25540370 -1.16090477
0.29989031 0.05132034 -0.89133692
0.32715106 0.04142481 -0.90123248
0.35446468 0.03158218 -0.91107506
0.38183230 0.02179359 -0.92086369
0.40925509 0.01206014 -0.93059719
0.43673414 0.00238295 -0.94027436
0.46427065 -0.00723687 -0.94989413
0.49186563 -0.01679808 -0.95945537
0.51952034 -0.02629969 -0.96895695
0.54723579 -0.03574049 -0.97839773
0.57501316 -0.04511940 -0.98777646
0.60285354 -0.05443524 -0.99709231
0.63075811 -0.06368692 -1.00634408
0.65872800 -0.07287328 -1.01553047
0.68676424 -0.08199322 -1.02465045
0.71486813 -0.09104562 -1.03370285
0.74304062 -0.10002929 -1.04268646
0.77128303 -0.10894325 -1.05160046
0.79959637 -0.11778623 -1.06044340
0.82798159 -0.12655711 -1.06921422
0.85644013 -0.13525480 -1.07791209
0.88497311 -0.14387825 -1.08653545
0.91358125 -0.15242612 -1.09508336
0.94226623 -0.16089752 -1.10355473
0.97102880 -0.16929123 -1.11194849
0.99987018 -0.17760602 -1.12026322
1.02879167 -0.18584096 -1.12849808
1.05779409 -0.19399473 -1.13665175
1.08687866 -0.20206630 -1.14472365
1.11604667 -0.21005455 -1.15271175
1.14529920 -0.21795830 -1.16061568
1.17463720 -0.22577649 -1.16843367
1.20406210 -0.23350796 -1.17616510
0.28051335 0.06909958 -0.91071385
0.30787900 0.05930895 -0.92050445
0.33529970 0.04957344 -0.93024004
0.36277664 0.03989419 -0.93991929
0.39031100 0.03027226 -0.94954121
0.41790384 0.02070884 -0.95910460
0.44555631 0.01120505 -0.96860844
0.47326946 0.00176200 -0.97805142
0.50104457 -0.00761919 -0.98743260
0.52888262 -0.01693738 -0.99675089
0.55678487 -0.02619141 -1.00600493
0.58475232 -0.03538024 -1.01519370
0.61278617 -0.04450266 -1.02431619
0.64088744 -0.05355754 -1.03337109
0.66905743 -0.06254381 -1.04235733
0.69729716 -0.07146025 -1.05127382
0.72560781 -0.08030587 -1.06011939
0.75399053 -0.08907944 -1.06889307
0.78244632 -0.09777990 -1.07759345
0.81097645 -0.10640600 -1.08621967
0.83958203 -0.11495683 -1.09477019
0.86826402 -0.12343100 -1.10324442
0.89702374 -0.13182753 -1.11164105
0.92586219 -0.14014530 -1.11995876
0.95478064 -0.14838314 -1.12819660
0.98378003 -0.15653989 -1.13635361
1.01286173 -0.16461456 -1.14442801
1.04202652 -0.17260584 -1.15241933
1.07127595 -0.18051276 -1.16032624
1.10061097 -0.18833420 -1.16814756
1.13003242 -0.19606873 -1.17588222
1.15954185 -0.20371559 -1.18352926
1.18914020 -0.21127355 -1.19108701
0.26134437 0.08708689 -0.92988294
0.28881925 0.07740551 -0.93956423
0.31635147 0.06778146 -0.94918823
0.34394214 0.05821589 -0.95875394
0.37159234 0.04870987 -0.96825987
0.39930329 0.03926456 -0.97770518
0.42707610 0.02988106 -0.98708868
0.45491183 0.02056055 -0.99640918
0.48281163 0.01130411 -1.00566566
0.51077664 0.00211291 -1.01485682
0.53880805 -0.00701198 -1.02398169
0.56690687 -0.01606941 -1.03303909
0.59507430 -0.02505818 -1.04202783
0.62331152 -0.03397727 -1.05094695
0.65161955 -0.04282549 -1.05979526
0.67999953 -0.05160174 -1.06857157
0.70845270 -0.06030485 -1.07727468
0.73698002 -0.06893381 -1.08590353
0.76558268 -0.07748732 -1.09445703
0.79426187 -0.08596435 -1.10293412
0.82301867 -0.09436375 -1.11133349
0.85185438 -0.10268447 -1.11965418
0.88076973 -0.11092526 -1.12789512
0.90976614 -0.11908501 -1.13605487
0.93884474 -0.12716267 -1.14413249
0.96800661 -0.13515711 -1.15212691
0.99725282 -0.14306715 -1.16003680
1.02658463 -0.15089166 -1.16786146
1.05600286 -0.15862954 -1.17559922
1.08550906 -0.16627961 -1.18324947
1.11510408 -0.17384082 -1.19081068
1.14478934 -0.18131202 -1.19828176
1.17456567 -0.18869209 -1.20566177
0.24239200 0.10529074 -0.94883519
0.26998049 0.09572297 -0.95840299
0.29762852 0.08621475 -0.96791118
0.32533717 0.07676721 -0.97735876
0.35310769 0.06738141 -0.98674464
0.38094109 0.05805856 -0.99606746
0.40883851 0.04879975 -1.00532627
0.43680114 0.03960611 -1.01451993
0.46483004 0.03047879 -1.02364719
0.49292639 0.02141887 -1.03270710
0.52109128 0.01242752 -1.04169858
0.54932588 0.00350586 -1.05062020
0.57763124 -0.00534499 -1.05947101
0.60600859 -0.01412389 -1.06825006
0.63445902 -0.02282977 -1.07695568
0.66298354 -0.03146136 -1.08558750
0.69158351 -0.04001772 -1.09414375
0.72025990 -0.04849762 -1.10262358
0.74901384 -0.05689994 -1.11102581
0.77784657 -0.06522354 -1.11934960
0.80675900 -0.07346728 -1.12759328
0.83575249 -0.08163005 -1.13575613
0.86482805 -0.08971080 -1.14383686
0.89398670 -0.09770826 -1.15183425
0.92322993 -0.10562146 -1.15974748
0.95255840 -0.11344904 -1.16757512
0.98197359 -0.12119013 -1.17531621
1.01147652 -0.12884352 -1.18296957
1.04106832 -0.13640800 -1.19053411
1.07075000 -0.14388251 -1.19800866
1.10052288 -0.15126583 -1.20539212
1.13038778 -0.15855700 -1.21268320
1.16034639 -0.16575488 -1.21988094
0.22366476 0.12371973 -0.96756250
0.25137118 0.11426993 -0.97701234
0.27913940 0.10488181 -0.98640031
0.30697042 0.09555668 -0.99572557
0.33486548 0.08629547 -1.00498676
0.36282569 0.07709940 -1.01418269
0.39085212 0.06796961 -1.02331245
0.41894597 0.05890724 -1.03237510
0.44710830 0.04991332 -1.04136884
0.47534034 0.04098906 -1.05029309
0.50364316 0.03213556 -1.05914664
0.53201783 0.02335398 -1.06792819
0.56046551 0.01464543 -1.07663667
0.58898729 0.00601110 -1.08527112
0.61758447 -0.00254804 -1.09383023
0.64625800 -0.01103076 -1.10231292
0.67500901 -0.01943594 -1.11071825
0.70383877 -0.02776244 -1.11904466
0.73274839 -0.03600916 -1.12729144
0.76173884 -0.04417500 -1.13545716
0.79081136 -0.05225873 -1.14354098
0.81996691 -0.06025931 -1.15154135
0.84920692 -0.06817549 -1.15945780
0.87853229 -0.07600635 -1.16728854
0.90794432 -0.08375067 -1.17503297
0.93744409 -0.09140733 -1.18268943
0.96703243 -0.09897506 -1.19025731
0.99671090 -0.10645294 -1.19773507
1.02648032 -0.11383969 -1.20512199
1.05634201 -0.12113428 -1.21241641
1.08629704 -0.12833554 -1.21961761
1.11634660 -0.13544235 -1.22672439
1.14649153 -0.14245358 -1.23373580
0.20517115 0.14238237 -0.98605609
0.23299986 0.13305484 -0.99538362
0.26089257 0.12379126 -1.00464714
0.28885031 0.11459282 -1.01384556
0.31687433 0.10546057 -1.02297795
0.34496570 0.09639564 -1.03204286
0.37312552 0.08739920 -1.04103935
0.40135488 0.07847241 -1.04996610
0.42965502 0.06961630 -1.05882215
0.45802709 0.06083202 -1.06760645
0.48647207 0.05212079 -1.07631767
0.51499116 0.04348363 -1.08495486
0.54358548 0.03492171 -1.09351659
0.57225621 0.02643618 -1.10200238
0.60100436 0.01802814 -1.11041045
0.62983119 0.00969872 -1.11873984
0.65873784 0.00144908 -1.12698948
0.68772525 -0.00671974 -1.13515830
0.71679473 -0.01480657 -1.14324498
0.74594736 -0.02281019 -1.15124857
0.77518415 -0.03072962 -1.15916800
0.80450642 -0.03856361 -1.16700208
0.83391517 -0.04631111 -1.17474961
0.86341166 -0.05397096 -1.18240941
0.89299679 -0.06154200 -1.18998051
0.92267179 -0.06902313 -1.19746161
0.95243800 -0.07641327 -1.20485175
0.98229623 -0.08371130 -1.21214974
1.01224780 -0.09091604 -1.21935439
1.04229379 -0.09802631 -1.22646487
1.07243514 -0.10504100 -1.23347962
1.10267341 -0.11195910 -1.24039769
1.13300943 -0.11877939 -1.24721789
0.18691970 0.16128717 -1.00430739
0.21487509 0.15208629 -1.01350844
0.24289662 0.14295156 -1.02264309
0.27098545 0.13388419 -1.03171051
0.29914275 0.12488522 -1.04070950
0.32736957 0.11595581 -1.04963887
0.35566708 0.10709706 -1.05849767
0.38403642 0.09831019 -1.06728446
0.41247872 0.08959621 -1.07599843
0.44099513 0.08095630 -1.08463848
0.46958664 0.07239161 -1.09320319
0.49825454 0.06390321 -1.10169148
0.52699983 0.05549231 -1.11010242
0.55582374 0.04716001 -1.11843479
0.58472741 0.03890735 -1.12668741
0.61371183 0.03073561 -1.13485920
0.64277828 0.02264577 -1.14294899
0.67192775 0.01463902 -1.15095568
0.70116150 0.00671649 -1.15887821
0.73048061 -0.00112069 -1.16671550
0.75988621 -0.00887138 -1.17446601
0.78937930 -0.01653442 -1.18212926
0.81896126 -0.02410877 -1.18970358
0.84863293 -0.03159323 -1.19718814
0.87839580 -0.03898683 -1.20458150
0.90825063 -0.04628816 -1.21188295
