wmmhue.cube
# VEGAS Pro LUT
TITLE "wmmhue"
LUT_3D_SIZE 5
0.00000000 0.00000000 0.00000000
0.25000000 0.00000000 0.00000000
0.50000000 0.00000000 0.00000000
0.75000000 0.00000000 0.00000000
1.00000000 0.00000000 0.00000000
0.25000000 0.00000000 0.00000000
0.25367650 0.00000000 0.00000000
0.50000000 0.00000000 0.00000000
0.75000000 0.00000000 0.00000000
1.00000000 0.00000000 0.00000000
0.50000000 0.00000000 0.00000000
0.50000000 0.00000000 0.00000000
0.50490201 0.00000000 0.00000000
0.75000000 0.00000000 0.00000000
1.00000000 0.00000000 0.00000000
0.75000000 0.00000000 0.00000000
0.75000000 0.00000000 0.00000000
0.75000000 0.00000000 0.00000000
0.75367653 0.00000000 0.00000000
1.00000000 0.00000000 0.00000000
1.00000000 0.00000000 0.00000000
1.00000000 0.00000000 0.00000000
1.00000000 0.00000000 0.00000000
1.00000000 0.00000000 0.00000000
1.00000000 0.00000000 0.00000000
0.25000000 0.00000000 0.00000000
0.25367650 0.00000000 0.00000000
0.50000000 0.00000000 0.00000000
0.75000000 0.00000000 0.00000000
1.00000000 0.00000000 0.00000000
0.25367650 0.00000000 0.00000000
0.25459564 0.24356613 0.24356613
0.50000000 0.24632350 0.24632350
0.75000000 0.24577197 0.24577197
1.00000000 0.24632350 0.24632350
0.50000000 0.00000000 0.00000000
0.50000000 0.24632350 0.24632350
0.50490201 0.25000000 0.25000000
0.75000000 0.24926463 0.24926463
1.00000000 0.25000000 0.25000000
0.75000000 0.00000000 0.00000000
0.75000000 0.24577200 0.24577197
0.75000000 0.24926460 0.24926463
0.75367653 0.24871314 0.24871311
1.00000000 0.25000000 0.25000000
1.00000000 0.00000000 0.00000000
1.00000000 0.24632347 0.24632350
1.00000000 0.25000000 0.25000000
1.00000000 0.25000000 0.25000000
1.00000000 0.25000000 0.25000000
0.50000000 0.00000000 0.00000000
0.50000000 0.00000000 0.00000000
0.50490201 0.00000000 0.00000000
0.75000000 0.00000000 0.00000000
1.00000000 0.00000000 0.00000000
0.50000000 0.00000000 0.00000000
0.50000000 0.24632350 0.24632350
0.50490201 0.25000000 0.25000000
0.75000000 0.24926463 0.24926463
1.00000000 0.25000000 0.25000000
0.50490201 0.00000000 0.00000000
0.50490201 0.25000000 0.25000000
0.50735301 0.49264699 0.49264699
0.75000000 0.49289241 0.49289241
1.00000000 0.49509799 0.49509799
0.75000000 0.00000000 0.00000000
0.75000000 0.24926460 0.24926463
0.75000000 0.49289244 0.49289244
0.75367653 0.49889719 0.49889719
1.00000000 0.50000000 0.50000000
1.00000000 0.00000000 0.00000000
1.00000000 0.25000000 0.25000000
1.00000000 0.49509799 0.49509799
1.00000000 0.50000000 0.50000000
1.00000000 0.50000000 0.50000000
0.75000000 0.00000000 0.00000000
0.75000000 0.00000000 0.00000000
0.75000000 0.00000000 0.00000000
0.75367653 0.00000000 0.00000000
1.00000000 0.00000000 0.00000000
0.75000000 0.00000000 0.00000000
0.75000000 0.24577197 0.24577200
0.75000000 0.24926463 0.24926460
0.75367653 0.24871311 0.24871314
1.00000000 0.25000000 0.25000000
0.75000000 0.00000000 0.00000000
0.75000000 0.24926463 0.24926460
0.75000000 0.49289244 0.49289244
0.75367653 0.49889719 0.49889719
1.00000000 0.50000000 0.50000000
0.75367653 0.00000000 0.00000000
0.75367653 0.24871314 0.24871314
0.75367653 0.49889722 0.49889722
0.75643396 0.74540436 0.74540436
1.00000000 0.74632347 0.74632347
1.00000000 0.00000000 0.00000000
1.00000000 0.25000000 0.25000000
1.00000000 0.50000000 0.50000000
1.00000000 0.74632347 0.74632347
1.00000000 0.75000000 0.75000000
1.00000000 0.00000000 0.00000000
1.00000000 0.00000000 0.00000000
1.00000000 0.00000000 0.00000000
1.00000000 0.00000000 0.00000000
1.00000000 0.00000000 0.00000000
1.00000000 0.00000000 0.00000000
1.00000000 0.24632350 0.24632347
1.00000000 0.25000000 0.25000000
1.00000000 0.25000000 0.25000000
1.00000000 0.25000000 0.25000000
1.00000000 0.00000000 0.00000000
1.00000000 0.25000000 0.25000000
1.00000000 0.49509799 0.49509799
1.00000000 0.50000000 0.50000000
1.00000000 0.50000000 0.50000000
1.00000000 0.00000000 0.00000000
1.00000000 0.25000000 0.25000000
1.00000000 0.50000000 0.50000000
1.00000000 0.74632347 0.74632347
1.00000000 0.75000000 0.75000000
1.00000000 0.00000000 0.00000000
1.00000000 0.25000000 0.25000000
1.00000000 0.50000000 0.50000000
1.00000000 0.75000000 0.75000000
1.00000000 1.00000000 1.00000000
