wmmhue.cube
# VEGAS Pro LUT
TITLE "wmmhue"
LUT_3D_SIZE 9
0.00000000 0.00000000 0.00000000
0.12352924 0.00000000 0.00000000
0.25000000 0.00000000 0.00000000
0.37450975 0.00000000 0.00000000
0.50000000 0.00000000 0.00000000
0.62549025 0.00000000 0.00000000
0.75000000 0.00000000 0.00000000
0.87647074 0.00000000 0.00000000
1.00000000 0.00000000 0.00000000
0.12352924 0.00000000 0.00000000
0.12524490 0.00000000 0.00000000
0.25000000 0.00000000 0.00000000
0.37450975 0.00000000 0.00000000
0.50000000 0.00000000 0.00000000
0.62549025 0.00000000 0.00000000
0.75000000 0.00000000 0.00000000
0.87647074 0.00000000 0.00000000
1.00000000 0.00000000 0.00000000
0.25000000 0.00000000 0.00000000
0.25000000 0.00000000 0.00000000
0.25367650 0.00000000 0.00000000
0.37450975 0.00000000 0.00000000
0.50000000 0.00000000 0.00000000
0.62549025 0.00000000 0.00000000
0.75000000 0.00000000 0.00000000
0.87647074 0.00000000 0.00000000
1.00000000 0.00000000 0.00000000
0.37450975 0.00000000 0.00000000
0.37450975 0.00000000 0.00000000
0.37450975 0.00000000 0.00000000
0.37818614 0.00000000 0.00000000
0.50000000 0.00000000 0.00000000
0.62549025 0.00000000 0.00000000
0.75000000 0.00000000 0.00000000
0.87647074 0.00000000 0.00000000
1.00000000 0.00000000 0.00000000
0.50000000 0.00000000 0.00000000
0.50000000 0.00000000 0.00000000
0.50000000 0.00000000 0.00000000
0.50000000 0.00000000 0.00000000
0.50490201 0.00000000 0.00000000
0.62549025 0.00000000 0.00000000
0.75000000 0.00000000 0.00000000
0.87647074 0.00000000 0.00000000
1.00000000 0.00000000 0.00000000
0.62549025 0.00000000 0.00000000
0.62549025 0.00000000 0.00000000
0.62549025 0.00000000 0.00000000
0.62549025 0.00000000 0.00000000
0.62549025 0.00000000 0.00000000
0.62916666 0.00000000 0.00000000
0.75000000 0.00000000 0.00000000
0.87647074 0.00000000 0.00000000
1.00000000 0.00000000 0.00000000
0.75000000 0.00000000 0.00000000
0.75000000 0.00000000 0.00000000
0.75000000 0.00000000 0.00000000
0.75000000 0.00000000 0.00000000
0.75000000 0.00000000 0.00000000
0.75000000 0.00000000 0.00000000
0.75367653 0.00000000 0.00000000
0.87647074 0.00000000 0.00000000
1.00000000 0.00000000 0.00000000
0.87647074 0.00000000 0.00000000
0.87647074 0.00000000 0.00000000
0.87647074 0.00000000 0.00000000
0.87647074 0.00000000 0.00000000
0.87647074 0.00000000 0.00000000
0.87647074 0.00000000 0.00000000
0.87647074 0.00000000 0.00000000
0.87818640 0.00000000 0.00000000
1.00000000 0.00000000 0.00000000
1.00000000 0.00000000 0.00000000
1.00000000 0.00000000 0.00000000
1.00000000 0.00000000 0.00000000
1.00000000 0.00000000 0.00000000
1.00000000 0.00000000 0.00000000
1.00000000 0.00000000 0.00000000
1.00000000 0.00000000 0.00000000
1.00000000 0.00000000 0.00000000
1.00000000 0.00000000 0.00000000
0.12352924 0.00000000 0.00000000
0.12524490 0.00000000 0.00000000
0.25000000 0.00000000 0.00000000
0.37450975 0.00000000 0.00000000
0.50000000 0.00000000 0.00000000
0.62549025 0.00000000 0.00000000
0.75000000 0.00000000 0.00000000
0.87647074 0.00000000 0.00000000
1.00000000 0.00000000 0.00000000
0.12524490 0.00000000 0.00000000
0.12545936 0.12031238 0.12031238
0.25000000 0.12158377 0.12158377
0.37450975 0.12181358 0.12181358
0.50000000 0.12181358 0.12181358
0.62436450 0.12181358 0.12181358
0.74908078 0.12181358 0.12181358
0.87529117 0.12181358 0.12181358
1.00000000 0.12181358 0.12181358
0.25000000 0.00000000 0.00000000
0.25000000 0.12158379 0.12158378
0.25367650 0.12349859 0.12349860
0.37450975 0.12352924 0.12352924
0.50000000 0.12352924 0.12352924
0.62420368 0.12352924 0.12352924
0.74950975 0.12352924 0.12352924
0.87561291 0.12352924 0.12352924
1.00000000 0.12352924 0.12352924
0.37450975 0.00000000 0.00000000
0.37450975 0.12181360 0.12181358
0.37450975 0.12352926 0.12352924
0.37818614 0.12352926 0.12352924
0.50000000 0.12352926 0.12352924
0.62420368 0.12352926 0.12352924
0.74950975 0.12352926 0.12352924
0.87561291 0.12352926 0.12352924
1.00000000 0.12352926 0.12352924
0.50000000 0.00000000 0.00000000
0.50000000 0.12181360 0.12181358
0.50000000 0.12352926 0.12352924
0.50000000 0.12352926 0.12352924
0.50490201 0.12352926 0.12352924
0.62420368 0.12352926 0.12352924
0.74950975 0.12352926 0.12352924
0.87561291 0.12352926 0.12352924
1.00000000 0.12352926 0.12352924
0.62549025 0.00000000 0.00000000
0.62436450 0.12181360 0.12181358
0.62420368 0.12352926 0.12352924
0.62420368 0.12352926 0.12352924
0.62420368 0.12352926 0.12352924
0.62707597 0.12352926 0.12352924
0.74950975 0.12352926 0.12352924
0.87561291 0.12352926 0.12352924
1.00000000 0.12352926 0.12352924
0.75000000 0.00000000 0.00000000
0.74908078 0.12181360 0.12181358
0.74950975 0.12352926 0.12352924
0.74950975 0.12352926 0.12352924
0.74950975 0.12352926 0.12352924
0.74950975 0.12352926 0.12352924
0.75318623 0.12352926 0.12352924
0.87561291 0.12352926 0.12352924
1.00000000 0.12352926 0.12352924
0.87647074 0.00000000 0.00000000
0.87529123 0.12181360 0.12181358
0.87561291 0.12352926 0.12352924
0.87561291 0.12352926 0.12352924
0.87561291 0.12352926 0.12352924
0.87561291 0.12352926 0.12352924
0.87561291 0.12352926 0.12352924
0.87700695 0.12352926 0.12352924
1.00000000 0.12352926 0.12352924
1.00000000 0.00000000 0.00000000
1.00000000 0.12181360 0.12181358
1.00000000 0.12352926 0.12352924
1.00000000 0.12352926 0.12352924
1.00000000 0.12352926 0.12352924
1.00000000 0.12352926 0.12352924
1.00000000 0.12352926 0.12352924
1.00000000 0.12352926 0.12352924
1.00000000 0.12352926 0.12352924
0.25000000 0.00000000 0.00000000
0.25000000 0.00000000 0.00000000
0.25367650 0.00000000 0.00000000
0.37450975 0.00000000 0.00000000
0.50000000 0.00000000 0.00000000
0.62549025 0.00000000 0.00000000
0.75000000 0.00000000 0.00000000
0.87647074 0.00000000 0.00000000
1.00000000 0.00000000 0.00000000
0.25000000 0.00000000 0.00000000
0.25000000 0.12158378 0.12158379
0.25367650 0.12349860 0.12349859
0.37450975 0.12352924 0.12352924
0.50000000 0.12352924 0.12352924
0.62420368 0.12352924 0.12352924
0.74950975 0.12352924 0.12352924
0.87561291 0.12352924 0.12352924
1.00000000 0.12352924 0.12352924
0.25367650 0.00000000 0.00000000
0.25367650 0.12349860 0.12349860
0.25459564 0.24356613 0.24356613
0.37450975 0.24632350 0.24632350
0.50000000 0.24632350 0.24632350
0.62549025 0.24632350 0.24632350
0.75000000 0.24577197 0.24577197
0.87647074 0.24583331 0.24583331
1.00000000 0.24632350 0.24632350
0.37450975 0.00000000 0.00000000
0.37450975 0.12352926 0.12352924
0.37450975 0.24632350 0.24632350
0.37818614 0.25000000 0.25000000
0.50000000 0.25000000 0.25000000
0.62549025 0.25000000 0.25000000
0.75000000 0.24926463 0.24926463
0.87647074 0.24950978 0.24950978
1.00000000 0.25000000 0.25000000
0.50000000 0.00000000 0.00000000
0.50000000 0.12352926 0.12352924
0.50000000 0.24632350 0.24632350
0.50000000 0.25000000 0.25000000
0.50490201 0.25000000 0.25000000
0.62549025 0.25000000 0.25000000
0.75000000 0.24926463 0.24926463
0.87647074 0.24950978 0.24950978
1.00000000 0.25000000 0.25000000
0.62549025 0.00000000 0.00000000
0.62420368 0.12352926 0.12352924
0.62549025 0.24632350 0.24632350
0.62549025 0.25000000 0.25000000
0.62549025 0.25000000 0.25000000
0.62916666 0.25000000 0.25000000
0.75000000 0.24926463 0.24926463
0.87647074 0.24950978 0.24950978
1.00000000 0.25000000 0.25000000
0.75000000 0.00000000 0.00000000
0.74950975 0.12352926 0.12352924
0.75000000 0.24577200 0.24577197
0.75000000 0.24926460 0.24926463
0.75000000 0.24926460 0.24926463
0.75000000 0.24926460 0.24926463
0.75367653 0.24871314 0.24871311
0.87647074 0.24950981 0.24950978
1.00000000 0.25000000 0.25000000
0.87647074 0.00000000 0.00000000
0.87561297 0.12352926 0.12352924
0.87647074 0.24583328 0.24583329
0.87647074 0.24950981 0.24950978
0.87647074 0.24950981 0.24950978
0.87647074 0.24950981 0.24950978
0.87647074 0.24950981 0.24950978
0.87818640 0.24908084 0.24908084
1.00000000 0.25000000 0.25000000
1.00000000 0.00000000 0.00000000
1.00000000 0.12352926 0.12352924
1.00000000 0.24632347 0.24632350
1.00000000 0.25000000 0.25000000
1.00000000 0.25000000 0.25000000
1.00000000 0.25000000 0.25000000
1.00000000 0.25000000 0.25000000
1.00000000 0.25000000 0.25000000
1.00000000 0.25000000 0.25000000
0.37450975 0.00000000 0.00000000
0.37450975 0.00000000 0.00000000
0.37450975 0.00000000 0.00000000
0.37818614 0.00000000 0.00000000
0.50000000 0.00000000 0.00000000
0.62549025 0.00000000 0.00000000
0.75000000 0.00000000 0.00000000
0.87647074 0.00000000 0.00000000
1.00000000 0.00000000 0.00000000
0.37450975 0.00000000 0.00000000
0.37450975 0.12181358 0.12181360
0.37450975 0.12352924 0.12352926
0.37818614 0.12352924 0.12352926
0.50000000 0.12352924 0.12352926
0.62420368 0.12352924 0.12352926
0.74950975 0.12352924 0.12352926
0.87561291 0.12352924 0.12352926
1.00000000 0.12352924 0.12352926
0.37450975 0.00000000 0.00000000
0.37450975 0.12352924 0.12352926
0.37450975 0.24632350 0.24632350
0.37818614 0.25000000 0.25000000
0.50000000 0.25000000 0.25000000
0.62549025 0.25000000 0.25000000
0.75000000 0.24926463 0.24926463
0.87647074 0.24950978 0.24950978
1.00000000 0.25000000 0.25000000
0.37818614 0.00000000 0.00000000
0.37818614 0.12352926 0.12352926
0.37818614 0.25000000 0.25000000
0.37956479 0.36853558 0.36853558
0.50000000 0.37083334 0.37083334
0.62549025 0.37083334 0.37083334
0.75000000 0.37083334 0.37083334
0.87418807 0.37053460 0.37053460
1.00000000 0.37083334 0.37083334
0.50000000 0.00000000 0.00000000
0.50000000 0.12352926 0.12352926
0.50000000 0.25000000 0.25000000
0.50000000 0.37083334 0.37083334
0.50490201 0.37450975 0.37450975
0.62549025 0.37450975 0.37450975
0.75000000 0.37450975 0.37450975
0.87487751 0.37432590 0.37432590
1.00000000 0.37450975 0.37450975
0.62549025 0.00000000 0.00000000
0.62420368 0.12352926 0.12352926
0.62549025 0.25000000 0.25000000
0.62549025 0.37083334 0.37083334
0.62549025 0.37450975 0.37450975
0.62916666 0.37450975 0.37450975
0.75000000 0.37450975 0.37450975
0.87487751 0.37432590 0.37432590
1.00000000 0.37450975 0.37450975
0.75000000 0.00000000 0.00000000
0.74950975 0.12352926 0.12352926
0.75000000 0.24926460 0.24926463
0.75000000 0.37083334 0.37083334
0.75000000 0.37450975 0.37450975
0.75000000 0.37450975 0.37450975
0.75367653 0.37450975 0.37450975
0.87487751 0.37432590 0.37432590
1.00000000 0.37450975 0.37450975
0.87647074 0.00000000 0.00000000
0.87561297 0.12352926 0.12352926
0.87647074 0.24950981 0.24950978
0.87418807 0.37053460 0.37053460
0.87487751 0.37432587 0.37432590
0.87487757 0.37432587 0.37432590
0.87487751 0.37432587 0.37432590
0.87648600 0.37416506 0.37416503
1.00000000 0.37450975 0.37450975
1.00000000 0.00000000 0.00000000
1.00000000 0.12352926 0.12352926
1.00000000 0.25000000 0.25000000
1.00000000 0.37083334 0.37083334
1.00000000 0.37450975 0.37450975
1.00000000 0.37450975 0.37450975
1.00000000 0.37450975 0.37450975
1.00000000 0.37450975 0.37450975
1.00000000 0.37450975 0.37450975
0.50000000 0.00000000 0.00000000
0.50000000 0.00000000 0.00000000
0.50000000 0.00000000 0.00000000
0.50000000 0.00000000 0.00000000
0.50490201 0.00000000 0.00000000
0.62549025 0.00000000 0.00000000
0.75000000 0.00000000 0.00000000
0.87647074 0.00000000 0.00000000
1.00000000 0.00000000 0.00000000
0.50000000 0.00000000 0.00000000
0.50000000 0.12181358 0.12181360
0.50000000 0.12352924 0.12352926
0.50000000 0.12352924 0.12352926
0.50490201 0.12352924 0.12352926
0.62420368 0.12352924 0.12352926
0.74950975 0.12352924 0.12352926
0.87561291 0.12352924 0.12352926
1.00000000 0.12352924 0.12352926
0.50000000 0.00000000 0.00000000
0.50000000 0.12352924 0.12352926
0.50000000 0.24632350 0.24632350
0.50000000 0.25000000 0.25000000
0.50490201 0.25000000 0.25000000
0.62549025 0.25000000 0.25000000
0.75000000 0.24926463 0.24926463
0.87647074 0.24950978 0.24950978
1.00000000 0.25000000 0.25000000
0.50000000 0.00000000 0.00000000
0.50000000 0.12352926 0.12352926
0.50000000 0.25000000 0.25000000
0.50000000 0.37083334 0.37083334
0.50490201 0.37450975 0.37450975
0.62549025 0.37450975 0.37450975
0.75000000 0.37450975 0.37450975
0.87487751 0.37432590 0.37432590
1.00000000 0.37450975 0.37450975
0.50490201 0.00000000 0.00000000
0.50490201 0.12352926 0.12352926
0.50490201 0.25000000 0.25000000
0.50490201 0.37450975 0.37450975
0.50735301 0.49264699 0.49264699
0.62549025 0.49399522 0.49399522
0.75000000 0.49289241 0.49289241
0.87549031 0.49509799 0.49509799
1.00000000 0.49509799 0.49509799
0.62549025 0.00000000 0.00000000
0.62420368 0.12352926 0.12352926
0.62549025 0.25000000 0.25000000
0.62549025 0.37450975 0.37450975
0.62549025 0.49399519 0.49399519
0.62916666 0.49880531 0.49880531
0.75000000 0.49852961 0.49852961
0.87450975 0.50000000 0.50000000
1.00000000 0.50000000 0.50000000
0.75000000 0.00000000 0.00000000
0.74950975 0.12352926 0.12352926
0.75000000 0.24926460 0.24926463
0.75000000 0.37450975 0.37450975
0.75000000 0.49289244 0.49289244
0.75000000 0.49852961 0.49852961
0.75367653 0.49889719 0.49889719
0.87450981 0.50000000 0.50000000
1.00000000 0.50000000 0.50000000
0.87647074 0.00000000 0.00000000
0.87561297 0.12352926 0.12352926
0.87647074 0.24950981 0.24950978
0.87487745 0.37432587 0.37432590
0.87549031 0.49509799 0.49509799
0.87450981 0.50000000 0.50000000
0.87450981 0.50000000 0.50000000
0.87622553 0.50000000 0.50000000
1.00000000 0.50000000 0.50000000
1.00000000 0.00000000 0.00000000
1.00000000 0.12352926 0.12352926
1.00000000 0.25000000 0.25000000
1.00000000 0.37450975 0.37450975
1.00000000 0.49509799 0.49509799
1.00000000 0.50000000 0.50000000
1.00000000 0.50000000 0.50000000
1.00000000 0.50000000 0.50000000
1.00000000 0.50000000 0.50000000
0.62549025 0.00000000 0.00000000
0.62549025 0.00000000 0.00000000
0.62549025 0.00000000 0.00000000
0.62549025 0.00000000 0.00000000
0.62549025 0.00000000 0.00000000
0.62916666 0.00000000 0.00000000
0.75000000 0.00000000 0.00000000
0.87647074 0.00000000 0.00000000
1.00000000 0.00000000 0.00000000
0.62549025 0.00000000 0.00000000
0.62436450 0.12181358 0.12181360
0.62420368 0.12352924 0.12352926
0.62420368 0.12352924 0.12352926
0.62420368 0.12352924 0.12352926
0.62707597 0.12352924 0.12352926
0.74950975 0.12352924 0.12352926
0.87561291 0.12352924 0.12352926
1.00000000 0.12352924 0.12352926
0.62549025 0.00000000 0.00000000
0.62420368 0.12352924 0.12352926
0.62549025 0.24632350 0.24632350
0.62549025 0.25000000 0.25000000
0.62549025 0.25000000 0.25000000
0.62916666 0.25000000 0.25000000
0.75000000 0.24926463 0.24926463
0.87647074 0.24950978 0.24950978
1.00000000 0.25000000 0.25000000
0.62549025 0.00000000 0.00000000
0.62420368 0.12352926 0.12352926
0.62549025 0.25000000 0.25000000
0.62549025 0.37083334 0.37083334
0.62549025 0.37450975 0.37450975
0.62916666 0.37450975 0.37450975
0.75000000 0.37450975 0.37450975
0.87487751 0.37432590 0.37432590
1.00000000 0.37450975 0.37450975
0.62549025 0.00000000 0.00000000
0.62420368 0.12352926 0.12352926
0.62549025 0.25000000 0.25000000
0.62549025 0.37450975 0.37450975
0.62549025 0.49399519 0.49399519
0.62916666 0.49880534 0.49880534
0.75000000 0.49852964 0.49852964
0.87450981 0.50000000 0.50000000
1.00000000 0.50000000 0.50000000
0.62916666 0.00000000 0.00000000
0.62707597 0.12352926 0.12352926
0.62916666 0.25000000 0.25000000
0.62916666 0.37450975 0.37450975
0.62916666 0.49880534 0.49880534
0.63146442 0.62043518 0.62043518
0.75000000 0.62181383 0.62181383
0.87640184 0.62181383 0.62181383
1.00000000 0.62181383 0.62181383
0.75000000 0.00000000 0.00000000
0.74950975 0.12352926 0.12352926
0.75000000 0.24926460 0.24926463
0.75000000 0.37450975 0.37450975
0.75000000 0.49852964 0.49852964
0.75000000 0.62181383 0.62181383
0.75367653 0.62549025 0.62549025
0.87628698 0.62549025 0.62549025
1.00000000 0.62549025 0.62549025
0.87647074 0.00000000 0.00000000
0.87561297 0.12352926 0.12352926
0.87647074 0.24950981 0.24950978
0.87487745 0.37432587 0.37432590
0.87450981 0.50000000 0.50000000
0.87640184 0.62181383 0.62181383
0.87628698 0.62549025 0.62549025
0.87784183 0.62549025 0.62549025
1.00000000 0.62549025 0.62549025
1.00000000 0.00000000 0.00000000
1.00000000 0.12352926 0.12352926
1.00000000 0.25000000 0.25000000
1.00000000 0.37450975 0.37450975
1.00000000 0.50000000 0.50000000
1.00000000 0.62181383 0.62181383
1.00000000 0.62549025 0.62549025
1.00000000 0.62549025 0.62549025
1.00000000 0.62549025 0.62549025
0.75000000 0.00000000 0.00000000
0.75000000 0.00000000 0.00000000
0.75000000 0.00000000 0.00000000
0.75000000 0.00000000 0.00000000
0.75000000 0.00000000 0.00000000
0.75000000 0.00000000 0.00000000
0.75367653 0.00000000 0.00000000
0.87647074 0.00000000 0.00000000
1.00000000 0.00000000 0.00000000
0.75000000 0.00000000 0.00000000
0.74908078 0.12181358 0.12181360
0.74950975 0.12352924 0.12352926
0.74950975 0.12352924 0.12352926
0.74950975 0.12352924 0.12352926
0.74950975 0.12352924 0.12352926
0.75318623 0.12352924 0.12352926
0.87561291 0.12352924 0.12352926
1.00000000 0.12352924 0.12352926
0.75000000 0.00000000 0.00000000
0.74950975 0.12352924 0.12352926
0.75000000 0.24577197 0.24577200
0.75000000 0.24926463 0.24926460
0.75000000 0.24926463 0.24926460
0.75000000 0.24926463 0.24926460
0.75367653 0.24871311 0.24871314
0.87647074 0.24950978 0.24950981
1.00000000 0.25000000 0.25000000
0.75000000 0.00000000 0.00000000
0.74950975 0.12352926 0.12352926
0.75000000 0.24926463 0.24926460
0.75000000 0.37083334 0.37083334
0.75000000 0.37450975 0.37450975
0.75000000 0.37450975 0.37450975
0.75367653 0.37450975 0.37450975
0.87487751 0.37432590 0.37432590
1.00000000 0.37450975 0.37450975
0.75000000 0.00000000 0.00000000
0.74950975 0.12352926 0.12352926
0.75000000 0.24926463 0.24926460
0.75000000 0.37450975 0.37450975
0.75000000 0.49289244 0.49289244
0.75000000 0.49852961 0.49852961
0.75367653 0.49889719 0.49889719
0.87450981 0.50000000 0.50000000
1.00000000 0.50000000 0.50000000
0.75000000 0.00000000 0.00000000
0.74950975 0.12352926 0.12352926
0.75000000 0.24926463 0.24926460
0.75000000 0.37450975 0.37450975
0.75000000 0.49852961 0.49852961
0.75000000 0.62181383 0.62181383
0.75367653 0.62549025 0.62549025
0.87628698 0.62549025 0.62549025
1.00000000 0.62549025 0.62549025
0.75367653 0.00000000 0.00000000
0.75318629 0.12352926 0.12352926
0.75367653 0.24871314 0.24871314
0.75367653 0.37450975 0.37450975
0.75367653 0.49889722 0.49889722
0.75367653 0.62549025 0.62549025
0.75643396 0.74540436 0.74540436
0.87647074 0.74564934 0.74564934
1.00000000 0.74632347 0.74632347
0.87647074 0.00000000 0.00000000
0.87561297 0.12352926 0.12352926
0.87647074 0.24950981 0.24950981
0.87487745 0.37432587 0.37432590
0.87450981 0.50000000 0.50000000
0.87628698 0.62549025 0.62549025
0.87647074 0.74564940 0.74564940
0.87818640 0.74855977 0.74855977
1.00000000 0.75000000 0.75000000
1.00000000 0.00000000 0.00000000
1.00000000 0.12352926 0.12352926
1.00000000 0.25000000 0.25000000
1.00000000 0.37450975 0.37450975
1.00000000 0.50000000 0.50000000
1.00000000 0.62549025 0.62549025
1.00000000 0.74632347 0.74632347
1.00000000 0.75000000 0.75000000
1.00000000 0.75000000 0.75000000
0.87647074 0.00000000 0.00000000
0.87647074 0.00000000 0.00000000
0.87647074 0.00000000 0.00000000
0.87647074 0.00000000 0.00000000
0.87647074 0.00000000 0.00000000
0.87647074 0.00000000 0.00000000
0.87647074 0.00000000 0.00000000
0.87818640 0.00000000 0.00000000
1.00000000 0.00000000 0.00000000
0.87647074 0.00000000 0.00000000
0.87529123 0.12181358 0.12181360
0.87561297 0.12352924 0.12352926
0.87561297 0.12352924 0.12352926
0.87561297 0.12352924 0.12352926
0.87561297 0.12352924 0.12352926
0.87561297 0.12352924 0.12352926
0.87700695 0.12352924 0.12352926
1.00000000 0.12352924 0.12352926
0.87647074 0.00000000 0.00000000
0.87561297 0.12352924 0.12352926
0.87647074 0.24583329 0.24583328
0.87647074 0.24950978 0.24950981
0.87647074 0.24950978 0.24950981
0.87647074 0.24950978 0.24950981
0.87647074 0.24950978 0.24950981
0.87818640 0.24908084 0.24908084
1.00000000 0.25000000 0.25000000
0.87647074 0.00000000 0.00000000
0.87561297 0.12352926 0.12352926
0.87647074 0.24950978 0.24950981
0.87418807 0.37053460 0.37053460
0.87487745 0.37432590 0.37432587
0.87487745 0.37432590 0.37432587
0.87487745 0.37432590 0.37432587
0.87648594 0.37416503 0.37416506
1.00000000 0.37450975 0.37450975
0.87647074 0.00000000 0.00000000
0.87561297 0.12352926 0.12352926
0.87647074 0.24950978 0.24950981
0.87487745 0.37432590 0.37432587
0.87549031 0.49509799 0.49509799
0.87450981 0.50000000 0.50000000
0.87450981 0.50000000 0.50000000
0.87622553 0.50000000 0.50000000
1.00000000 0.50000000 0.50000000
0.87647074 0.00000000 0.00000000
0.87561297 0.12352926 0.12352926
0.87647074 0.24950978 0.24950981
0.87487745 0.37432590 0.37432587
0.87450981 0.50000000 0.50000000
0.87640184 0.62181383 0.62181383
0.87628698 0.62549025 0.62549025
0.87784183 0.62549025 0.62549025
1.00000000 0.62549025 0.62549025
0.87647074 0.00000000 0.00000000
0.87561297 0.12352926 0.12352926
0.87647074 0.24950981 0.24950981
0.87487745 0.37432590 0.37432587
0.87450981 0.50000000 0.50000000
0.87628698 0.62549025 0.62549025
0.87647074 0.74564946 0.74564946
0.87818640 0.74855989 0.74855989
1.00000000 0.75000000 0.75000000
0.87818640 0.00000000 0.00000000
0.87700695 0.12352926 0.12352926
0.87818640 0.24908084 0.24908084
0.87648600 0.37416506 0.37416506
0.87622547 0.50000000 0.50000000
0.87784183 0.62549025 0.62549025
0.87818640 0.74855989 0.74855989
0.87968761 0.87454063 0.87454063
1.00000000 0.87475508 0.87475508
1.00000000 0.00000000 0.00000000
1.00000000 0.12352926 0.12352926
1.00000000 0.25000000 0.25000000
1.00000000 0.37450975 0.37450975
1.00000000 0.50000000 0.50000000
1.00000000 0.62549025 0.62549025
1.00000000 0.75000000 0.75000000
1.00000000 0.87475508 0.87475508
1.00000000 0.87647074 0.87647074
1.00000000 0.00000000 0.00000000
1.00000000 0.00000000 0.00000000
1.00000000 0.00000000 0.00000000
1.00000000 0.00000000 0.00000000
1.00000000 0.00000000 0.00000000
1.00000000 0.00000000 0.00000000
1.00000000 0.00000000 0.00000000
1.00000000 0.00000000 0.00000000
1.00000000 0.00000000 0.00000000
1.00000000 0.00000000 0.00000000
1.00000000 0.12181358 0.12181360
1.00000000 0.12352924 0.12352926
1.00000000 0.12352924 0.12352926
1.00000000 0.12352924 0.12352926
1.00000000 0.12352924 0.12352926
1.00000000 0.12352924 0.12352926
1.00000000 0.12352924 0.12352926
1.00000000 0.12352924 0.12352926
1.00000000 0.00000000 0.00000000
1.00000000 0.12352924 0.12352926
1.00000000 0.24632350 0.24632347
1.00000000 0.25000000 0.25000000
1.00000000 0.25000000 0.25000000
1.00000000 0.25000000 0.25000000
1.00000000 0.25000000 0.25000000
1.00000000 0.25000000 0.25000000
1.00000000 0.25000000 0.25000000
1.00000000 0.00000000 0.00000000
1.00000000 0.12352926 0.12352926
1.00000000 0.25000000 0.25000000
1.00000000 0.37083334 0.37083334
1.00000000 0.37450975 0.37450975
1.00000000 0.37450975 0.37450975
1.00000000 0.37450975 0.37450975
1.00000000 0.37450975 0.37450975
1.00000000 0.37450975 0.37450975
1.00000000 0.00000000 0.00000000
1.00000000 0.12352926 0.12352926
1.00000000 0.25000000 0.25000000
1.00000000 0.37450975 0.37450975
1.00000000 0.49509799 0.49509799
1.00000000 0.50000000 0.50000000
1.00000000 0.50000000 0.50000000
1.00000000 0.50000000 0.50000000
1.00000000 0.50000000 0.50000000
1.00000000 0.00000000 0.00000000
1.00000000 0.12352926 0.12352926
1.00000000 0.25000000 0.25000000
1.00000000 0.37450975 0.37450975
1.00000000 0.50000000 0.50000000
1.00000000 0.62181383 0.62181383
1.00000000 0.62549025 0.62549025
1.00000000 0.62549025 0.62549025
1.00000000 0.62549025 0.62549025
1.00000000 0.00000000 0.00000000
1.00000000 0.12352926 0.12352926
1.00000000 0.25000000 0.25000000
1.00000000 0.37450975 0.37450975
1.00000000 0.50000000 0.50000000
1.00000000 0.62549025 0.62549025
1.00000000 0.74632347 0.74632347
1.00000000 0.75000000 0.75000000
1.00000000 0.75000000 0.75000000
1.00000000 0.00000000 0.00000000
1.00000000 0.12352926 0.12352926
1.00000000 0.25000000 0.25000000
1.00000000 0.37450975 0.37450975
1.00000000 0.50000000 0.50000000
1.00000000 0.62549025 0.62549025
1.00000000 0.75000000 0.75000000
1.00000000 0.87475508 0.87475508
1.00000000 0.87647074 0.87647074
1.00000000 0.00000000 0.00000000
1.00000000 0.12352926 0.12352926
1.00000000 0.25000000 0.25000000
1.00000000 0.37450975 0.37450975
1.00000000 0.50000000 0.50000000
1.00000000 0.62549025 0.62549025
1.00000000 0.75000000 0.75000000
1.00000000 0.87647074 0.87647074
1.00000000 1.00000000 1.00000000
