wmmhue.cube
# VEGAS Pro LUT
TITLE "wmmhue"
LUT_3D_SIZE 33
0.00000000 0.00000000 0.00000000
0.03088278 0.00000000 0.00000000
0.06176462 0.00000000 0.00000000
0.09264734 0.00000000 0.00000000
0.12352924 0.00000000 0.00000000
0.15441191 0.00000000 0.00000000
0.18529388 0.00000000 0.00000000
0.21617669 0.00000000 0.00000000
0.25000000 0.00000000 0.00000000
0.28186303 0.00000000 0.00000000
0.31274512 0.00000000 0.00000000
0.34362760 0.00000000 0.00000000
0.37450975 0.00000000 0.00000000
0.40539217 0.00000000 0.00000000
0.43627435 0.00000000 0.00000000
0.46715719 0.00000000 0.00000000
0.50000000 0.00000000 0.00000000
0.53284281 0.00000000 0.00000000
0.56372559 0.00000000 0.00000000
0.59460783 0.00000000 0.00000000
0.62549025 0.00000000 0.00000000
0.65637243 0.00000000 0.00000000
0.68725491 0.00000000 0.00000000
0.71813697 0.00000000 0.00000000
0.75000000 0.00000000 0.00000000
0.78382331 0.00000000 0.00000000
0.81470615 0.00000000 0.00000000
0.84558809 0.00000000 0.00000000
0.87647074 0.00000000 0.00000000
0.90735269 0.00000000 0.00000000
0.93823540 0.00000000 0.00000000
0.96911716 0.00000000 0.00000000
1.00000000 0.00000000 0.00000000
0.03088278 0.00000000 0.00000000
0.03135768 0.00000000 0.00000000
0.06176462 0.00000000 0.00000000
0.09264734 0.00000000 0.00000000
0.12352924 0.00000000 0.00000000
0.15441191 0.00000000 0.00000000
0.18529388 0.00000000 0.00000000
0.21617669 0.00000000 0.00000000
0.25000000 0.00000000 0.00000000
0.28186303 0.00000000 0.00000000
0.31274512 0.00000000 0.00000000
0.34362760 0.00000000 0.00000000
0.37450975 0.00000000 0.00000000
0.40539217 0.00000000 0.00000000
0.43627435 0.00000000 0.00000000
0.46715719 0.00000000 0.00000000
0.50000000 0.00000000 0.00000000
0.53284281 0.00000000 0.00000000
0.56372559 0.00000000 0.00000000
0.59460783 0.00000000 0.00000000
0.62549025 0.00000000 0.00000000
0.65637243 0.00000000 0.00000000
0.68725491 0.00000000 0.00000000
0.71813697 0.00000000 0.00000000
0.75000000 0.00000000 0.00000000
0.78382331 0.00000000 0.00000000
0.81470615 0.00000000 0.00000000
0.84558809 0.00000000 0.00000000
0.87647074 0.00000000 0.00000000
0.90735269 0.00000000 0.00000000
0.93823540 0.00000000 0.00000000
0.96911716 0.00000000 0.00000000
1.00000000 0.00000000 0.00000000
0.06176462 0.00000000 0.00000000
0.06176462 0.00000000 0.00000000
0.06268372 0.00000000 0.00000000
0.09264734 0.00000000 0.00000000
0.12352924 0.00000000 0.00000000
0.15441191 0.00000000 0.00000000
0.18529388 0.00000000 0.00000000
0.21617669 0.00000000 0.00000000
0.25000000 0.00000000 0.00000000
0.28186303 0.00000000 0.00000000
0.31274512 0.00000000 0.00000000
0.34362760 0.00000000 0.00000000
0.37450975 0.00000000 0.00000000
0.40539217 0.00000000 0.00000000
0.43627435 0.00000000 0.00000000
0.46715719 0.00000000 0.00000000
0.50000000 0.00000000 0.00000000
0.53284281 0.00000000 0.00000000
0.56372559 0.00000000 0.00000000
0.59460783 0.00000000 0.00000000
0.62549025 0.00000000 0.00000000
0.65637243 0.00000000 0.00000000
0.68725491 0.00000000 0.00000000
0.71813697 0.00000000 0.00000000
0.75000000 0.00000000 0.00000000
0.78382331 0.00000000 0.00000000
0.81470615 0.00000000 0.00000000
0.84558809 0.00000000 0.00000000
0.87647074 0.00000000 0.00000000
0.90735269 0.00000000 0.00000000
0.93823540 0.00000000 0.00000000
0.96911716 0.00000000 0.00000000
1.00000000 0.00000000 0.00000000
0.09264734 0.00000000 0.00000000
0.09264734 0.00000000 0.00000000
0.09264734 0.00000000 0.00000000
0.09398013 0.00000000 0.00000000
0.12352924 0.00000000 0.00000000
0.15441191 0.00000000 0.00000000
0.18529388 0.00000000 0.00000000
0.21617669 0.00000000 0.00000000
0.25000000 0.00000000 0.00000000
0.28186303 0.00000000 0.00000000
0.31274512 0.00000000 0.00000000
0.34362760 0.00000000 0.00000000
0.37450975 0.00000000 0.00000000
0.40539217 0.00000000 0.00000000
0.43627435 0.00000000 0.00000000
0.46715719 0.00000000 0.00000000
0.50000000 0.00000000 0.00000000
0.53284281 0.00000000 0.00000000
0.56372559 0.00000000 0.00000000
0.59460783 0.00000000 0.00000000
0.62549025 0.00000000 0.00000000
0.65637243 0.00000000 0.00000000
0.68725491 0.00000000 0.00000000
0.71813697 0.00000000 0.00000000
0.75000000 0.00000000 0.00000000
0.78382337 0.00000000 0.00000000
0.81470615 0.00000000 0.00000000
0.84558809 0.00000000 0.00000000
0.87647074 0.00000000 0.00000000
0.90735269 0.00000000 0.00000000
0.93823540 0.00000000 0.00000000
0.96911716 0.00000000 0.00000000
1.00000000 0.00000000 0.00000000
0.12352924 0.00000000 0.00000000
0.12352924 0.00000000 0.00000000
0.12352924 0.00000000 0.00000000
0.12352924 0.00000000 0.00000000
0.12524490 0.00000000 0.00000000
0.15441191 0.00000000 0.00000000
0.18529388 0.00000000 0.00000000
0.21617669 0.00000000 0.00000000
0.25000000 0.00000000 0.00000000
0.28186303 0.00000000 0.00000000
0.31274512 0.00000000 0.00000000
0.34362760 0.00000000 0.00000000
0.37450975 0.00000000 0.00000000
0.40539217 0.00000000 0.00000000
0.43627435 0.00000000 0.00000000
0.46715719 0.00000000 0.00000000
0.50000000 0.00000000 0.00000000
0.53284281 0.00000000 0.00000000
0.56372559 0.00000000 0.00000000
0.59460783 0.00000000 0.00000000
0.62549025 0.00000000 0.00000000
0.65637243 0.00000000 0.00000000
0.68725491 0.00000000 0.00000000
0.71813697 0.00000000 0.00000000
0.75000000 0.00000000 0.00000000
0.78382331 0.00000000 0.00000000
0.81470615 0.00000000 0.00000000
0.84558809 0.00000000 0.00000000
0.87647074 0.00000000 0.00000000
0.90735269 0.00000000 0.00000000
0.93823540 0.00000000 0.00000000
0.96911716 0.00000000 0.00000000
1.00000000 0.00000000 0.00000000
0.15441191 0.00000000 0.00000000
0.15441191 0.00000000 0.00000000
0.15441191 0.00000000 0.00000000
0.15441191 0.00000000 0.00000000
0.15441191 0.00000000 0.00000000
0.15648001 0.00000000 0.00000000
0.18529388 0.00000000 0.00000000
0.21617669 0.00000000 0.00000000
0.25000000 0.00000000 0.00000000
0.28186303 0.00000000 0.00000000
0.31274512 0.00000000 0.00000000
0.34362760 0.00000000 0.00000000
0.37450972 0.00000000 0.00000000
0.40539214 0.00000000 0.00000000
0.43627435 0.00000000 0.00000000
0.46715719 0.00000000 0.00000000
0.50000000 0.00000000 0.00000000
0.53284281 0.00000000 0.00000000
0.56372559 0.00000000 0.00000000
0.59460783 0.00000000 0.00000000
0.62549025 0.00000000 0.00000000
0.65637243 0.00000000 0.00000000
0.68725491 0.00000000 0.00000000
0.71813697 0.00000000 0.00000000
0.75000000 0.00000000 0.00000000
0.78382331 0.00000000 0.00000000
0.81470615 0.00000000 0.00000000
0.84558809 0.00000000 0.00000000
0.87647080 0.00000000 0.00000000
0.90735269 0.00000000 0.00000000
0.93823540 0.00000000 0.00000000
0.96911716 0.00000000 0.00000000
1.00000000 0.00000000 0.00000000
0.18529388 0.00000000 0.00000000
0.18529388 0.00000000 0.00000000
0.18529388 0.00000000 0.00000000
0.18529388 0.00000000 0.00000000
0.18529388 0.00000000 0.00000000
0.18529388 0.00000000 0.00000000
0.18768355 0.00000000 0.00000000
0.21617669 0.00000000 0.00000000
0.25000000 0.00000000 0.00000000
0.28186303 0.00000000 0.00000000
0.31274512 0.00000000 0.00000000
0.34362760 0.00000000 0.00000000
0.37450975 0.00000000 0.00000000
0.40539217 0.00000000 0.00000000
0.43627435 0.00000000 0.00000000
0.46715719 0.00000000 0.00000000
0.50000000 0.00000000 0.00000000
0.53284281 0.00000000 0.00000000
0.56372559 0.00000000 0.00000000
0.59460783 0.00000000 0.00000000
0.62549025 0.00000000 0.00000000
0.65637243 0.00000000 0.00000000
0.68725491 0.00000000 0.00000000
0.71813697 0.00000000 0.00000000
0.75000000 0.00000000 0.00000000
0.78382331 0.00000000 0.00000000
0.81470615 0.00000000 0.00000000
0.84558809 0.00000000 0.00000000
0.87647069 0.00000000 0.00000000
0.90735269 0.00000000 0.00000000
0.93823540 0.00000000 0.00000000
0.96911716 0.00000000 0.00000000
1.00000000 0.00000000 0.00000000
0.21617669 0.00000000 0.00000000
0.21617669 0.00000000 0.00000000
0.21617669 0.00000000 0.00000000
0.21617669 0.00000000 0.00000000
0.21617669 0.00000000 0.00000000
0.21617669 0.00000000 0.00000000
0.21617669 0.00000000 0.00000000
0.21885741 0.00000000 0.00000000
0.25000000 0.00000000 0.00000000
0.28186303 0.00000000 0.00000000
0.31274512 0.00000000 0.00000000
0.34362760 0.00000000 0.00000000
0.37450975 0.00000000 0.00000000
0.40539217 0.00000000 0.00000000
0.43627435 0.00000000 0.00000000
0.46715719 0.00000000 0.00000000
0.50000000 0.00000000 0.00000000
0.53284281 0.00000000 0.00000000
0.56372559 0.00000000 0.00000000
0.59460783 0.00000000 0.00000000
0.62549025 0.00000000 0.00000000
0.65637243 0.00000000 0.00000000
0.68725491 0.00000000 0.00000000
0.71813697 0.00000000 0.00000000
0.75000000 0.00000000 0.00000000
0.78382331 0.00000000 0.00000000
0.81470609 0.00000000 0.00000000
0.84558809 0.00000000 0.00000000
0.87647074 0.00000000 0.00000000
0.90735269 0.00000000 0.00000000
0.93823540 0.00000000 0.00000000
0.96911716 0.00000000 0.00000000
1.00000000 0.00000000 0.00000000
0.25000000 0.00000000 0.00000000
0.25000000 0.00000000 0.00000000
0.25000000 0.00000000 0.00000000
0.25000000 0.00000000 0.00000000
0.25000000 0.00000000 0.00000000
0.25000000 0.00000000 0.00000000
0.25000000 0.00000000 0.00000000
0.25000000 0.00000000 0.00000000
0.25367650 0.00000000 0.00000000
0.28186303 0.00000000 0.00000000
0.31274512 0.00000000 0.00000000
0.34362760 0.00000000 0.00000000
0.37450975 0.00000000 0.00000000
0.40539217 0.00000000 0.00000000
0.43627435 0.00000000 0.00000000
0.46715719 0.00000000 0.00000000
0.50000000 0.00000000 0.00000000
0.53284281 0.00000000 0.00000000
0.56372559 0.00000000 0.00000000
0.59460783 0.00000000 0.00000000
0.62549025 0.00000000 0.00000000
0.65637243 0.00000000 0.00000000
0.68725491 0.00000000 0.00000000
0.71813697 0.00000000 0.00000000
0.75000000 0.00000000 0.00000000
0.78382331 0.00000000 0.00000000
0.81470615 0.00000000 0.00000000
0.84558809 0.00000000 0.00000000
0.87647074 0.00000000 0.00000000
0.90735269 0.00000000 0.00000000
0.93823540 0.00000000 0.00000000
0.96911716 0.00000000 0.00000000
1.00000000 0.00000000 0.00000000
0.28186303 0.00000000 0.00000000
0.28186303 0.00000000 0.00000000
0.28186303 0.00000000 0.00000000
0.28186303 0.00000000 0.00000000
0.28186303 0.00000000 0.00000000
0.28186303 0.00000000 0.00000000
0.28186303 0.00000000 0.00000000
0.28186303 0.00000000 0.00000000
0.28186303 0.00000000 0.00000000
0.28503412 0.00000000 0.00000000
0.31274512 0.00000000 0.00000000
0.34362760 0.00000000 0.00000000
0.37450975 0.00000000 0.00000000
0.40539217 0.00000000 0.00000000
0.43627435 0.00000000 0.00000000
0.46715719 0.00000000 0.00000000
0.50000000 0.00000000 0.00000000
0.53284281 0.00000000 0.00000000
0.56372559 0.00000000 0.00000000
0.59460783 0.00000000 0.00000000
0.62549025 0.00000000 0.00000000
0.65637243 0.00000000 0.00000000
0.68725491 0.00000000 0.00000000
0.71813697 0.00000000 0.00000000
0.75000000 0.00000000 0.00000000
0.78382337 0.00000000 0.00000000
0.81470615 0.00000000 0.00000000
0.84558809 0.00000000 0.00000000
0.87647074 0.00000000 0.00000000
0.90735269 0.00000000 0.00000000
0.93823540 0.00000000 0.00000000
0.96911716 0.00000000 0.00000000
1.00000000 0.00000000 0.00000000
0.31274512 0.00000000 0.00000000
0.31274512 0.00000000 0.00000000
0.31274512 0.00000000 0.00000000
0.31274512 0.00000000 0.00000000
0.31274512 0.00000000 0.00000000
0.31274512 0.00000000 0.00000000
0.31274512 0.00000000 0.00000000
0.31274512 0.00000000 0.00000000
0.31274512 0.00000000 0.00000000
0.31274512 0.00000000 0.00000000
0.31611517 0.00000000 0.00000000
0.34362760 0.00000000 0.00000000
0.37450975 0.00000000 0.00000000
0.40539217 0.00000000 0.00000000
0.43627435 0.00000000 0.00000000
0.46715721 0.00000000 0.00000000
0.50000000 0.00000000 0.00000000
0.53284281 0.00000000 0.00000000
0.56372559 0.00000000 0.00000000
0.59460783 0.00000000 0.00000000
0.62549025 0.00000000 0.00000000
0.65637243 0.00000000 0.00000000
0.68725491 0.00000000 0.00000000
0.71813697 0.00000000 0.00000000
0.75000000 0.00000000 0.00000000
0.78382325 0.00000000 0.00000000
0.81470609 0.00000000 0.00000000
0.84558809 0.00000000 0.00000000
0.87647074 0.00000000 0.00000000
0.90735269 0.00000000 0.00000000
0.93823540 0.00000000 0.00000000
0.96911716 0.00000000 0.00000000
1.00000000 0.00000000 0.00000000
0.34362760 0.00000000 0.00000000
0.34362760 0.00000000 0.00000000
0.34362760 0.00000000 0.00000000
0.34362760 0.00000000 0.00000000
0.34362760 0.00000000 0.00000000
0.34362760 0.00000000 0.00000000
0.34362760 0.00000000 0.00000000
0.34362757 0.00000000 0.00000000
0.34362760 0.00000000 0.00000000
0.34362760 0.00000000 0.00000000
0.34362760 0.00000000 0.00000000
0.34716636 0.00000000 0.00000000
0.37450975 0.00000000 0.00000000
0.40539217 0.00000000 0.00000000
0.43627435 0.00000000 0.00000000
0.46715721 0.00000000 0.00000000
0.50000000 0.00000000 0.00000000
0.53284281 0.00000000 0.00000000
0.56372559 0.00000000 0.00000000
0.59460783 0.00000000 0.00000000
0.62549025 0.00000000 0.00000000
0.65637243 0.00000000 0.00000000
0.68725491 0.00000000 0.00000000
0.71813697 0.00000000 0.00000000
0.75000000 0.00000000 0.00000000
0.78382325 0.00000000 0.00000000
0.81470615 0.00000000 0.00000000
0.84558809 0.00000000 0.00000000
0.87647074 0.00000000 0.00000000
0.90735269 0.00000000 0.00000000
0.93823540 0.00000000 0.00000000
0.96911716 0.00000000 0.00000000
1.00000000 0.00000000 0.00000000
0.37450975 0.00000000 0.00000000
0.37450975 0.00000000 0.00000000
0.37450975 0.00000000 0.00000000
0.37450975 0.00000000 0.00000000
0.37450975 0.00000000 0.00000000
0.37450975 0.00000000 0.00000000
0.37450975 0.00000000 0.00000000
0.37450975 0.00000000 0.00000000
0.37450975 0.00000000 0.00000000
0.37450975 0.00000000 0.00000000
0.37450975 0.00000000 0.00000000
0.37450975 0.00000000 0.00000000
0.37818614 0.00000000 0.00000000
0.40539217 0.00000000 0.00000000
0.43627435 0.00000000 0.00000000
0.46715719 0.00000000 0.00000000
0.50000000 0.00000000 0.00000000
0.53284281 0.00000000 0.00000000
0.56372559 0.00000000 0.00000000
0.59460783 0.00000000 0.00000000
0.62549025 0.00000000 0.00000000
0.65637243 0.00000000 0.00000000
0.68725491 0.00000000 0.00000000
0.71813697 0.00000000 0.00000000
0.75000000 0.00000000 0.00000000
0.78382331 0.00000000 0.00000000
0.81470615 0.00000000 0.00000000
0.84558809 0.00000000 0.00000000
0.87647074 0.00000000 0.00000000
0.90735269 0.00000000 0.00000000
0.93823540 0.00000000 0.00000000
0.96911716 0.00000000 0.00000000
1.00000000 0.00000000 0.00000000
0.40539217 0.00000000 0.00000000
0.40539217 0.00000000 0.00000000
0.40539217 0.00000000 0.00000000
0.40539217 0.00000000 0.00000000
0.40539217 0.00000000 0.00000000
0.40539217 0.00000000 0.00000000
0.40539217 0.00000000 0.00000000
0.40539217 0.00000000 0.00000000
0.40539217 0.00000000 0.00000000
0.40539217 0.00000000 0.00000000
0.40539217 0.00000000 0.00000000
0.40539217 0.00000000 0.00000000
0.40539217 0.00000000 0.00000000
0.40917605 0.00000000 0.00000000
0.43627435 0.00000000 0.00000000
0.46715719 0.00000000 0.00000000
0.50000000 0.00000000 0.00000000
0.53284281 0.00000000 0.00000000
0.56372559 0.00000000 0.00000000
0.59460783 0.00000000 0.00000000
0.62549025 0.00000000 0.00000000
0.65637243 0.00000000 0.00000000
0.68725491 0.00000000 0.00000000
0.71813697 0.00000000 0.00000000
0.75000000 0.00000000 0.00000000
0.78382331 0.00000000 0.00000000
0.81470615 0.00000000 0.00000000
0.84558809 0.00000000 0.00000000
0.87647074 0.00000000 0.00000000
0.90735269 0.00000000 0.00000000
0.93823540 0.00000000 0.00000000
0.96911716 0.00000000 0.00000000
1.00000000 0.00000000 0.00000000
0.43627435 0.00000000 0.00000000
0.43627435 0.00000000 0.00000000
0.43627435 0.00000000 0.00000000
0.43627435 0.00000000 0.00000000
0.43627435 0.00000000 0.00000000
0.43627435 0.00000000 0.00000000
0.43627435 0.00000000 0.00000000
0.43627435 0.00000000 0.00000000
0.43627435 0.00000000 0.00000000
0.43627435 0.00000000 0.00000000
0.43627435 0.00000000 0.00000000
0.43627435 0.00000000 0.00000000
0.43627435 0.00000000 0.00000000
0.43627435 0.00000000 0.00000000
0.44013458 0.00000000 0.00000000
0.46715719 0.00000000 0.00000000
0.50000000 0.00000000 0.00000000
0.53284281 0.00000000 0.00000000
0.56372559 0.00000000 0.00000000
0.59460783 0.00000000 0.00000000
0.62549025 0.00000000 0.00000000
0.65637243 0.00000000 0.00000000
0.68725491 0.00000000 0.00000000
0.71813697 0.00000000 0.00000000
0.75000000 0.00000000 0.00000000
0.78382331 0.00000000 0.00000000
0.81470615 0.00000000 0.00000000
0.84558809 0.00000000 0.00000000
0.87647080 0.00000000 0.00000000
0.90735269 0.00000000 0.00000000
0.93823540 0.00000000 0.00000000
0.96911716 0.00000000 0.00000000
1.00000000 0.00000000 0.00000000
0.46715719 0.00000000 0.00000000
0.46715719 0.00000000 0.00000000
0.46715719 0.00000000 0.00000000
0.46715719 0.00000000 0.00000000
0.46715719 0.00000000 0.00000000
0.46715719 0.00000000 0.00000000
0.46715719 0.00000000 0.00000000
0.46715719 0.00000000 0.00000000
0.46715719 0.00000000 0.00000000
0.46715719 0.00000000 0.00000000
0.46715719 0.00000000 0.00000000
0.46715719 0.00000000 0.00000000
0.46715719 0.00000000 0.00000000
0.46715719 0.00000000 0.00000000
0.46715719 0.00000000 0.00000000
0.47106338 0.00000000 0.00000000
0.50000000 0.00000000 0.00000000
0.53284281 0.00000000 0.00000000
0.56372559 0.00000000 0.00000000
0.59460783 0.00000000 0.00000000
0.62549025 0.00000000 0.00000000
0.65637243 0.00000000 0.00000000
0.68725491 0.00000000 0.00000000
0.71813697 0.00000000 0.00000000
0.75000000 0.00000000 0.00000000
0.78382331 0.00000000 0.00000000
0.81470615 0.00000000 0.00000000
0.84558809 0.00000000 0.00000000
0.87647074 0.00000000 0.00000000
0.90735269 0.00000000 0.00000000
0.93823540 0.00000000 0.00000000
0.96911716 0.00000000 0.00000000
1.00000000 0.00000000 0.00000000
0.50000000 0.00000000 0.00000000
0.50000000 0.00000000 0.00000000
0.50000000 0.00000000 0.00000000
0.50000000 0.00000000 0.00000000
0.50000000 0.00000000 0.00000000
0.50000000 0.00000000 0.00000000
0.50000000 0.00000000 0.00000000
0.50000000 0.00000000 0.00000000
0.50000000 0.00000000 0.00000000
0.50000000 0.00000000 0.00000000
0.50000000 0.00000000 0.00000000
0.50000000 0.00000000 0.00000000
0.50000000 0.00000000 0.00000000
0.50000000 0.00000000 0.00000000
0.50000000 0.00000000 0.00000000
0.50000000 0.00000000 0.00000000
0.50490201 0.00000000 0.00000000
0.53284281 0.00000000 0.00000000
0.56372559 0.00000000 0.00000000
0.59460783 0.00000000 0.00000000
0.62549025 0.00000000 0.00000000
0.65637243 0.00000000 0.00000000
0.68725491 0.00000000 0.00000000
0.71813697 0.00000000 0.00000000
0.75000000 0.00000000 0.00000000
0.78382331 0.00000000 0.00000000
0.81470615 0.00000000 0.00000000
0.84558809 0.00000000 0.00000000
0.87647074 0.00000000 0.00000000
0.90735269 0.00000000 0.00000000
0.93823540 0.00000000 0.00000000
0.96911716 0.00000000 0.00000000
1.00000000 0.00000000 0.00000000
0.53284281 0.00000000 0.00000000
0.53284281 0.00000000 0.00000000
0.53284281 0.00000000 0.00000000
0.53284281 0.00000000 0.00000000
0.53284281 0.00000000 0.00000000
0.53284281 0.00000000 0.00000000
0.53284281 0.00000000 0.00000000
0.53284281 0.00000000 0.00000000
0.53284281 0.00000000 0.00000000
0.53284281 0.00000000 0.00000000
0.53284281 0.00000000 0.00000000
0.53284281 0.00000000 0.00000000
0.53284281 0.00000000 0.00000000
0.53284281 0.00000000 0.00000000
0.53284281 0.00000000 0.00000000
0.53284281 0.00000000 0.00000000
0.53284281 0.00000000 0.00000000
0.53674901 0.00000000 0.00000000
0.56372559 0.00000000 0.00000000
0.59460783 0.00000000 0.00000000
0.62549025 0.00000000 0.00000000
0.65637243 0.00000000 0.00000000
0.68725491 0.00000000 0.00000000
0.71813697 0.00000000 0.00000000
0.75000000 0.00000000 0.00000000
0.78382331 0.00000000 0.00000000
0.81470615 0.00000000 0.00000000
0.84558809 0.00000000 0.00000000
0.87647074 0.00000000 0.00000000
0.90735269 0.00000000 0.00000000
0.93823540 0.00000000 0.00000000
0.96911716 0.00000000 0.00000000
1.00000000 0.00000000 0.00000000
0.56372559 0.00000000 0.00000000
0.56372559 0.00000000 0.00000000
0.56372559 0.00000000 0.00000000
0.56372559 0.00000000 0.00000000
0.56372559 0.00000000 0.00000000
0.56372559 0.00000000 0.00000000
0.56372559 0.00000000 0.00000000
0.56372559 0.00000000 0.00000000
0.56372559 0.00000000 0.00000000
0.56372559 0.00000000 0.00000000
0.56372559 0.00000000 0.00000000
0.56372559 0.00000000 0.00000000
0.56372559 0.00000000 0.00000000
0.56372559 0.00000000 0.00000000
0.56372559 0.00000000 0.00000000
0.56372559 0.00000000 0.00000000
0.56372559 0.00000000 0.00000000
0.56372559 0.00000000 0.00000000
0.56758583 0.00000000 0.00000000
0.59460783 0.00000000 0.00000000
0.62549025 0.00000000 0.00000000
0.65637243 0.00000000 0.00000000
0.68725491 0.00000000 0.00000000
0.71813697 0.00000000 0.00000000
0.75000000 0.00000000 0.00000000
0.78382331 0.00000000 0.00000000
0.81470615 0.00000000 0.00000000
0.84558809 0.00000000 0.00000000
0.87647080 0.00000000 0.00000000
0.90735269 0.00000000 0.00000000
0.93823540 0.00000000 0.00000000
0.96911716 0.00000000 0.00000000
1.00000000 0.00000000 0.00000000
0.59460783 0.00000000 0.00000000
0.59460783 0.00000000 0.00000000
0.59460783 0.00000000 0.00000000
0.59460783 0.00000000 0.00000000
0.59460783 0.00000000 0.00000000
0.59460783 0.00000000 0.00000000
0.59460783 0.00000000 0.00000000
0.59460783 0.00000000 0.00000000
0.59460783 0.00000000 0.00000000
0.59460783 0.00000000 0.00000000
0.59460783 0.00000000 0.00000000
0.59460783 0.00000000 0.00000000
0.59460783 0.00000000 0.00000000
0.59460783 0.00000000 0.00000000
0.59460783 0.00000000 0.00000000
0.59460783 0.00000000 0.00000000
0.59460783 0.00000000 0.00000000
0.59460783 0.00000000 0.00000000
0.59460783 0.00000000 0.00000000
0.59839171 0.00000000 0.00000000
0.62549025 0.00000000 0.00000000
0.65637243 0.00000000 0.00000000
0.68725491 0.00000000 0.00000000
0.71813697 0.00000000 0.00000000
0.75000000 0.00000000 0.00000000
0.78382331 0.00000000 0.00000000
0.81470615 0.00000000 0.00000000
0.84558809 0.00000000 0.00000000
0.87647074 0.00000000 0.00000000
0.90735269 0.00000000 0.00000000
0.93823540 0.00000000 0.00000000
0.96911716 0.00000000 0.00000000
1.00000000 0.00000000 0.00000000
0.62549025 0.00000000 0.00000000
0.62549025 0.00000000 0.00000000
0.62549025 0.00000000 0.00000000
0.62549025 0.00000000 0.00000000
0.62549025 0.00000000 0.00000000
0.62549025 0.00000000 0.00000000
0.62549025 0.00000000 0.00000000
0.62549025 0.00000000 0.00000000
0.62549025 0.00000000 0.00000000
0.62549025 0.00000000 0.00000000
0.62549025 0.00000000 0.00000000
0.62549025 0.00000000 0.00000000
0.62549025 0.00000000 0.00000000
0.62549025 0.00000000 0.00000000
0.62549025 0.00000000 0.00000000
0.62549025 0.00000000 0.00000000
0.62549025 0.00000000 0.00000000
0.62549025 0.00000000 0.00000000
0.62549025 0.00000000 0.00000000
0.62549025 0.00000000 0.00000000
0.62916666 0.00000000 0.00000000
0.65637243 0.00000000 0.00000000
0.68725491 0.00000000 0.00000000
0.71813697 0.00000000 0.00000000
0.75000000 0.00000000 0.00000000
0.78382331 0.00000000 0.00000000
0.81470615 0.00000000 0.00000000
0.84558809 0.00000000 0.00000000
0.87647074 0.00000000 0.00000000
0.90735269 0.00000000 0.00000000
0.93823540 0.00000000 0.00000000
0.96911716 0.00000000 0.00000000
1.00000000 0.00000000 0.00000000
0.65637243 0.00000000 0.00000000
0.65637243 0.00000000 0.00000000
0.65637243 0.00000000 0.00000000
0.65637243 0.00000000 0.00000000
0.65637243 0.00000000 0.00000000
0.65637243 0.00000000 0.00000000
0.65637243 0.00000000 0.00000000
0.65637243 0.00000000 0.00000000
0.65637243 0.00000000 0.00000000
0.65637243 0.00000000 0.00000000
0.65637243 0.00000000 0.00000000
0.65637243 0.00000000 0.00000000
0.65637243 0.00000000 0.00000000
0.65637243 0.00000000 0.00000000
0.65637243 0.00000000 0.00000000
0.65637243 0.00000000 0.00000000
0.65637243 0.00000000 0.00000000
0.65637243 0.00000000 0.00000000
0.65637243 0.00000000 0.00000000
0.65637243 0.00000000 0.00000000
0.65637243 0.00000000 0.00000000
0.65991116 0.00000000 0.00000000
0.68725491 0.00000000 0.00000000
0.71813697 0.00000000 0.00000000
0.75000000 0.00000000 0.00000000
0.78382325 0.00000000 0.00000000
0.81470615 0.00000000 0.00000000
0.84558809 0.00000000 0.00000000
0.87647074 0.00000000 0.00000000
0.90735269 0.00000000 0.00000000
0.93823540 0.00000000 0.00000000
0.96911716 0.00000000 0.00000000
